( pcb2gcode 1.1.4 )

G94     ( Inches per minute feed rate. )
G20     ( Units == INCHES.             )
G90     ( Absolute coordinates.        )
S20000  ( RPM spindle speed.           )
M3      ( Spindle on clockwise.        )

G64 P0.00500 ( set maximum deviation from commanded toolpath )

G04 P0 ( dwell for no time -- G64 should not smooth over this point )
G00 Z0.11811 ( retract )

G00 X1.76320 Y1.40800 ( rapid move to begin. )
G01 Z0.00000 F7.87402 ( plunge. )
G04 P0 ( dwell for no time -- G64 should not smooth over this point )
X1.76320 Y1.40800
X1.76320 Y1.40600
X1.76220 Y1.40600
X1.76220 Y1.37200
X1.76120 Y1.37200
X1.76120 Y1.37000
X1.76020 Y1.37000
X1.76020 Y1.36700
X1.75920 Y1.36700
X1.75920 Y1.36400
X1.75820 Y1.36400
X1.75820 Y1.36200
X1.75720 Y1.36200
X1.75720 Y1.35900
X1.75620 Y1.35900
X1.75620 Y1.35600
X1.75520 Y1.35600
X1.75520 Y1.35400
X1.75420 Y1.35400
X1.75420 Y1.35100
X1.75320 Y1.35100
X1.75320 Y1.34800
X1.75220 Y1.34800
X1.75220 Y1.34600
X1.75120 Y1.34600
X1.75120 Y1.34300
X1.75020 Y1.34300
X1.75020 Y1.34000
X1.74920 Y1.34000
X1.74920 Y1.33800
X1.74820 Y1.33800
X1.74820 Y1.33500
X1.74720 Y1.33500
X1.74720 Y1.33300
X1.74620 Y1.33300
X1.74620 Y1.33000
X1.74520 Y1.33000
X1.74520 Y1.32700
X1.74420 Y1.32700
X1.74420 Y1.32500
X1.74320 Y1.32500
X1.74320 Y1.32200
X1.74220 Y1.32200
X1.74220 Y1.31900
X1.74120 Y1.31900
X1.74120 Y1.31700
X1.74020 Y1.31700
X1.74020 Y1.31400
X1.73920 Y1.31400
X1.73920 Y1.31100
X1.73820 Y1.31100
X1.73820 Y1.30900
X1.73720 Y1.30900
X1.73720 Y1.30600
X1.73620 Y1.30600
X1.73620 Y1.30300
X1.73520 Y1.30300
X1.73520 Y1.30100
X1.73420 Y1.30100
X1.73420 Y1.29800
X1.73320 Y1.29800
X1.73320 Y1.29500
X1.73220 Y1.29500
X1.73220 Y1.29300
X1.73120 Y1.29300
X1.73120 Y1.29000
X1.73020 Y1.29000
X1.73020 Y1.28700
X1.72920 Y1.28700
X1.72920 Y1.28500
X1.72820 Y1.28500
X1.72820 Y1.28200
X1.72720 Y1.28200
X1.72720 Y1.28000
X1.72620 Y1.28000
X1.72620 Y1.27700
X1.72520 Y1.27700
X1.72520 Y1.27400
X1.72420 Y1.27400
X1.72420 Y1.27200
X1.72320 Y1.27200
X1.72320 Y1.26900
X1.72220 Y1.26900
X1.72220 Y1.26600
X1.72120 Y1.26600
X1.72120 Y1.26400
X1.72020 Y1.26400
X1.72020 Y1.26100
X1.71920 Y1.26100
X1.71920 Y1.25800
X1.71820 Y1.25800
X1.71820 Y1.25600
X1.71720 Y1.25600
X1.71720 Y1.25300
X1.71620 Y1.25300
X1.71620 Y1.25000
X1.71520 Y1.25000
X1.71520 Y1.24800
X1.71420 Y1.24800
X1.71420 Y1.24500
X1.71320 Y1.24500
X1.71320 Y1.24200
X1.71220 Y1.24200
X1.71220 Y1.24000
X1.71120 Y1.24000
X1.71120 Y1.23700
X1.71020 Y1.23700
X1.71020 Y1.23400
X1.70920 Y1.23400
X1.70920 Y1.23200
X1.70820 Y1.23200
X1.70820 Y1.22900
X1.70720 Y1.22900
X1.70720 Y1.22600
X1.70620 Y1.22600
X1.70620 Y1.22400
X1.70520 Y1.22400
X1.70520 Y1.22100
X1.70420 Y1.22100
X1.70420 Y1.21900
X1.70320 Y1.21900
X1.70320 Y1.21600
X1.70220 Y1.21600
X1.70220 Y1.21300
X1.70120 Y1.21300
X1.70120 Y1.21100
X1.70020 Y1.21100
X1.70020 Y1.20800
X1.69920 Y1.20800
X1.69920 Y1.20500
X1.69820 Y1.20500
X1.69820 Y1.20300
X1.69720 Y1.20300
X1.69720 Y1.20000
X1.69620 Y1.20000
X1.69620 Y1.19700
X1.69520 Y1.19700
X1.69520 Y1.19500
X1.69420 Y1.19500
X1.69420 Y1.19200
X1.69320 Y1.19200
X1.69320 Y1.18900
X1.69220 Y1.18900
X1.69220 Y1.18700
X1.69120 Y1.18700
X1.69120 Y1.18400
X1.69020 Y1.18400
X1.69020 Y1.18100
X1.68920 Y1.18100
X1.68920 Y1.17900
X1.68820 Y1.17900
X1.68820 Y1.17600
X1.68720 Y1.17600
X1.68720 Y1.17300
X1.68620 Y1.17300
X1.68620 Y1.17100
X1.68520 Y1.17100
X1.68520 Y1.16800
X1.68420 Y1.16800
X1.68420 Y1.16600
X1.68320 Y1.16600
X1.68320 Y1.16300
X1.68220 Y1.16300
X1.68220 Y1.16000
X1.68120 Y1.16000
X1.68120 Y1.15800
X1.68020 Y1.15800
X1.68020 Y1.15500
X1.67920 Y1.15500
X1.67920 Y1.15200
X1.67820 Y1.15200
X1.67820 Y1.15000
X1.67720 Y1.15000
X1.67720 Y1.14700
X1.67620 Y1.14700
X1.67620 Y1.14400
X1.67520 Y1.14400
X1.67520 Y1.14200
X1.67420 Y1.14200
X1.67420 Y1.13900
X1.67320 Y1.13900
X1.67320 Y1.13600
X1.67220 Y1.13600
X1.67220 Y1.13400
X1.67120 Y1.13400
X1.67120 Y1.13100
X1.67020 Y1.13100
X1.67020 Y1.12800
X1.66920 Y1.12800
X1.66920 Y1.12600
X1.66820 Y1.12600
X1.66820 Y1.12300
X1.66720 Y1.12300
X1.66720 Y1.12000
X1.66620 Y1.12000
X1.66620 Y1.11800
X1.66520 Y1.11800
X1.66520 Y1.11500
X1.66420 Y1.11500
X1.66420 Y1.11200
X1.66320 Y1.11200
X1.66320 Y1.11000
X1.66220 Y1.11000
X1.66220 Y1.10700
X1.66120 Y1.10700
X1.66120 Y1.10500
X1.66020 Y1.10500
X1.66020 Y1.10200
X1.65920 Y1.10200
X1.65920 Y1.09900
X1.65820 Y1.09900
X1.65820 Y1.09700
X1.65720 Y1.09700
X1.65720 Y1.09400
X1.65620 Y1.09400
X1.65620 Y1.09100
X1.65520 Y1.09100
X1.65520 Y1.08900
X1.65420 Y1.08900
X1.65420 Y1.08600
X1.65320 Y1.08600
X1.65320 Y1.08300
X1.65220 Y1.08300
X1.65220 Y1.08100
X1.65120 Y1.08100
X1.65120 Y1.07800
X1.65020 Y1.07800
X1.65020 Y1.07500
X1.64920 Y1.07500
X1.64920 Y1.07300
X1.64820 Y1.07300
X1.64820 Y1.07000
X1.64720 Y1.07000
X1.64720 Y1.06700
X1.64620 Y1.06700
X1.64620 Y1.06500
X1.64520 Y1.06500
X1.64520 Y1.06200
X1.64420 Y1.06200
X1.64420 Y1.05900
X1.64320 Y1.05900
X1.64320 Y1.05700
X1.64220 Y1.05700
X1.64220 Y1.05400
X1.64120 Y1.05400
X1.64120 Y1.05200
X1.64020 Y1.05200
X1.64020 Y1.04900
X1.63920 Y1.04900
X1.63920 Y1.04600
X1.63820 Y1.04600
X1.63820 Y1.04400
X1.63720 Y1.04400
X1.63720 Y1.04100
X1.63620 Y1.04100
X1.63620 Y1.03800
X1.63520 Y1.03800
X1.63520 Y1.03600
X1.63420 Y1.03600
X1.63420 Y1.03300
X1.63320 Y1.03300
X1.63320 Y1.03000
X1.63220 Y1.03000
X1.63220 Y1.02800
X1.63120 Y1.02800
X1.63120 Y1.02500
X1.63020 Y1.02500
X1.63020 Y1.02200
X1.62920 Y1.02200
X1.62920 Y1.02000
X1.62820 Y1.02000
X1.62820 Y1.01700
X1.62720 Y1.01700
X1.62720 Y1.01400
X1.62620 Y1.01400
X1.62620 Y1.01200
X1.62520 Y1.01200
X1.62520 Y1.00900
X1.62420 Y1.00900
X1.62420 Y1.00600
X1.62320 Y1.00600
X1.62320 Y1.00400
X1.62220 Y1.00400
X1.62220 Y1.00100
X1.62120 Y1.00100
X1.62120 Y0.99800
X1.62020 Y0.99800
X1.62020 Y0.99600
X1.61920 Y0.99600
X1.61920 Y0.99300
X1.61820 Y0.99300
X1.61820 Y0.99100
X1.61720 Y0.99100
X1.61720 Y0.98800
X1.61620 Y0.98800
X1.61620 Y0.98500
X1.61520 Y0.98500
X1.61520 Y0.98300
X1.61420 Y0.98300
X1.61420 Y0.98000
X1.61320 Y0.98000
X1.61320 Y0.97700
X1.61220 Y0.97700
X1.61220 Y0.97500
X1.61120 Y0.97500
X1.61120 Y0.97200
X1.61020 Y0.97200
X1.61020 Y0.96900
X1.60920 Y0.96900
X1.60920 Y0.96700
X1.60820 Y0.96700
X1.60820 Y0.96400
X1.60720 Y0.96400
X1.60720 Y0.96100
X1.60620 Y0.96100
X1.60620 Y0.95900
X1.60520 Y0.95900
X1.60520 Y0.95600
X1.60420 Y0.95600
X1.60420 Y0.95300
X1.60320 Y0.95300
X1.60320 Y0.95100
X1.60220 Y0.95100
X1.60220 Y0.94800
X1.60120 Y0.94800
X1.60120 Y0.94500
X1.60020 Y0.94500
X1.60020 Y0.94300
X1.59920 Y0.94300
X1.59920 Y0.94000
X1.59820 Y0.94000
X1.59820 Y0.93800
X1.59720 Y0.93800
X1.59720 Y0.93500
X1.59620 Y0.93500
X1.59620 Y0.93200
X1.59520 Y0.93200
X1.59520 Y0.93000
X1.59420 Y0.93000
X1.59420 Y0.92700
X1.59320 Y0.92700
X1.59320 Y0.92400
X1.59220 Y0.92400
X1.59220 Y0.92200
X1.59120 Y0.92200
X1.59120 Y0.91900
X1.59020 Y0.91900
X1.59020 Y0.91600
X1.58920 Y0.91600
X1.58920 Y0.91400
X1.58820 Y0.91400
X1.58820 Y0.91100
X1.58720 Y0.91100
X1.58720 Y0.90800
X1.58620 Y0.90800
X1.58620 Y0.90600
X1.58520 Y0.90600
X1.58520 Y0.90300
X1.58420 Y0.90300
X1.58420 Y0.90000
X1.58320 Y0.90000
X1.58320 Y0.89800
X1.58220 Y0.89800
X1.58220 Y0.89500
X1.58120 Y0.89500
X1.58120 Y0.89200
X1.58020 Y0.89200
X1.58020 Y0.89000
X1.57920 Y0.89000
X1.57920 Y0.88700
X1.57820 Y0.88700
X1.57820 Y0.88400
X1.57720 Y0.88400
X1.57720 Y0.88200
X1.57620 Y0.88200
X1.57620 Y0.87900
X1.57520 Y0.87900
X1.57520 Y0.87700
X1.57420 Y0.87700
X1.57420 Y0.87400
X1.57320 Y0.87400
X1.57320 Y0.87100
X1.57220 Y0.87100
X1.57220 Y0.86900
X1.57120 Y0.86900
X1.57120 Y0.86600
X1.57020 Y0.86600
X1.57020 Y0.86300
X1.56920 Y0.86300
X1.56920 Y0.86100
X1.56820 Y0.86100
X1.56820 Y0.85800
X1.56720 Y0.85800
X1.56720 Y0.85500
X1.56620 Y0.85500
X1.56620 Y0.85300
X1.56520 Y0.85300
X1.56520 Y0.85000
X1.56420 Y0.85000
X1.56420 Y0.84700
X1.56320 Y0.84700
X1.56320 Y0.84500
X1.56220 Y0.84500
X1.56220 Y0.84200
X1.56120 Y0.84200
X1.56120 Y0.83900
X1.56020 Y0.83900
X1.56020 Y0.83700
X1.55920 Y0.83700
X1.55920 Y0.83400
X1.55820 Y0.83400
X1.55820 Y0.83100
X1.55720 Y0.83100
X1.55720 Y0.82900
X1.55620 Y0.82900
X1.55620 Y0.82600
X1.55520 Y0.82600
X1.55520 Y0.82400
X1.55420 Y0.82400
X1.55420 Y0.82100
X1.55320 Y0.82100
X1.55320 Y0.81800
X1.55220 Y0.81800
X1.55220 Y0.81600
X1.55120 Y0.81600
X1.55120 Y0.81300
X1.55020 Y0.81300
X1.55020 Y0.81000
X1.54920 Y0.81000
X1.54920 Y0.80800
X1.54820 Y0.80800
X1.54820 Y0.80500
X1.54720 Y0.80500
X1.54720 Y0.80200
X1.54620 Y0.80200
X1.54620 Y0.80000
X1.54520 Y0.80000
X1.54520 Y0.79700
X1.54420 Y0.79700
X1.54420 Y0.79400
X1.54320 Y0.79400
X1.54320 Y0.79200
X1.54220 Y0.79200
X1.54220 Y0.78900
X1.54120 Y0.78900
X1.54120 Y0.78600
X1.54020 Y0.78600
X1.54020 Y0.78400
X1.53920 Y0.78400
X1.53920 Y0.78100
X1.53820 Y0.78100
X1.53820 Y0.77800
X1.53720 Y0.77800
X1.53720 Y0.77600
X1.53620 Y0.77600
X1.53620 Y0.77300
X1.53520 Y0.77300
X1.53520 Y0.77000
X1.53420 Y0.77000
X1.53420 Y0.76800
X1.53320 Y0.76800
X1.53320 Y0.76500
X1.53220 Y0.76500
X1.53220 Y0.76300
X1.53120 Y0.76300
X1.53120 Y0.76000
X1.53020 Y0.76000
X1.53020 Y0.75700
X1.52920 Y0.75700
X1.52920 Y0.75500
X1.52820 Y0.75500
X1.52820 Y0.75200
X1.52720 Y0.75200
X1.52720 Y0.74900
X1.52620 Y0.74900
X1.52620 Y0.74700
X1.52520 Y0.74700
X1.52520 Y0.74400
X1.52420 Y0.74400
X1.52420 Y0.74100
X1.52320 Y0.74100
X1.52320 Y0.73900
X1.52220 Y0.73900
X1.52220 Y0.73600
X1.52120 Y0.73600
X1.52120 Y0.73300
X1.52020 Y0.73300
X1.52020 Y0.73100
X1.51920 Y0.73100
X1.51920 Y0.72800
X1.51820 Y0.72800
X1.51820 Y0.72500
X1.51720 Y0.72500
X1.51720 Y0.72300
X1.51620 Y0.72300
X1.51620 Y0.72000
X1.51520 Y0.72000
X1.51520 Y0.71700
X1.51420 Y0.71700
X1.51420 Y0.71500
X1.51320 Y0.71500
X1.51320 Y0.71200
X1.51220 Y0.71200
X1.51220 Y0.71000
X1.51120 Y0.71000
X1.51120 Y0.70700
X1.51020 Y0.70700
X1.51020 Y0.70400
X1.50920 Y0.70400
X1.50920 Y0.70200
X1.50820 Y0.70200
X1.50820 Y0.69900
X1.50720 Y0.69900
X1.50720 Y0.69600
X1.50620 Y0.69600
X1.50620 Y0.69400
X1.50520 Y0.69400
X1.50520 Y0.69100
X1.50420 Y0.69100
X1.50420 Y0.68800
X1.50320 Y0.68800
X1.50320 Y0.68600
X1.50220 Y0.68600
X1.50220 Y0.68300
X1.50120 Y0.68300
X1.50120 Y0.68000
X1.50020 Y0.68000
X1.50020 Y0.67800
X1.49920 Y0.67800
X1.49920 Y0.67500
X1.49820 Y0.67500
X1.49820 Y0.67200
X1.49720 Y0.67200
X1.49720 Y0.67000
X1.49620 Y0.67000
X1.49620 Y0.66700
X1.49520 Y0.66700
X1.49520 Y0.66400
X1.49420 Y0.66400
X1.49420 Y0.66200
X1.49320 Y0.66200
X1.49320 Y0.65900
X1.49220 Y0.65900
X1.49220 Y0.65600
X1.49120 Y0.65600
X1.49120 Y0.65400
X1.49020 Y0.65400
X1.49020 Y0.65100
X1.48920 Y0.65100
X1.48920 Y0.64900
X1.48820 Y0.64900
X1.48820 Y0.64600
X1.48720 Y0.64600
X1.48720 Y0.64300
X1.48620 Y0.64300
X1.48620 Y0.64100
X1.48520 Y0.64100
X1.48520 Y0.63800
X1.48420 Y0.63800
X1.48420 Y0.63500
X1.48320 Y0.63500
X1.48320 Y0.63300
X1.48220 Y0.63300
X1.48220 Y0.63000
X1.48120 Y0.63000
X1.48120 Y0.62700
X1.48020 Y0.62700
X1.48020 Y0.62500
X1.47920 Y0.62500
X1.47920 Y0.62200
X1.47820 Y0.62200
X1.47820 Y0.61900
X1.47720 Y0.61900
X1.47720 Y0.61700
X1.47620 Y0.61700
X1.47620 Y0.61400
X1.47520 Y0.61400
X1.47520 Y0.61100
X1.47420 Y0.61100
X1.47420 Y0.60900
X1.47320 Y0.60900
X1.47320 Y0.60600
X1.47220 Y0.60600
X1.47220 Y0.60300
X1.47120 Y0.60300
X1.47120 Y0.60100
X1.47020 Y0.60100
X1.47020 Y0.59800
X1.46920 Y0.59800
X1.46920 Y0.59600
X1.46820 Y0.59600
X1.46820 Y0.59300
X1.46720 Y0.59300
X1.46720 Y0.59000
X1.46620 Y0.59000
X1.46620 Y0.58800
X1.46520 Y0.58800
X1.46520 Y0.58500
X1.46420 Y0.58500
X1.46420 Y0.58200
X1.46320 Y0.58200
X1.46320 Y0.58000
X1.46220 Y0.58000
X1.46220 Y0.57700
X1.46120 Y0.57700
X1.46120 Y0.57400
X1.46020 Y0.57400
X1.46020 Y0.57200
X1.45920 Y0.57200
X1.45920 Y0.56900
X1.45820 Y0.56900
X1.45820 Y0.56600
X1.45720 Y0.56600
X1.45720 Y0.56400
X1.45620 Y0.56400
X1.45620 Y0.56100
X1.45520 Y0.56100
X1.45520 Y0.55800
X1.45420 Y0.55800
X1.45420 Y0.55600
X1.45320 Y0.55600
X1.45320 Y0.55300
X1.45220 Y0.55300
X1.45220 Y0.55000
X1.45120 Y0.55000
X1.45120 Y0.54800
X1.45020 Y0.54800
X1.45020 Y0.54500
X1.44920 Y0.54500
X1.44920 Y0.54200
X1.44820 Y0.54200
X1.44820 Y0.54000
X1.44720 Y0.54000
X1.44720 Y0.53700
X1.44620 Y0.53700
X1.44620 Y0.53500
X1.44520 Y0.53500
X1.44520 Y0.53200
X1.44420 Y0.53200
X1.44420 Y0.52900
X1.44320 Y0.52900
X1.44320 Y0.52700
X1.44220 Y0.52700
X1.44220 Y0.52400
X1.44120 Y0.52400
X1.44120 Y0.52100
X1.44020 Y0.52100
X1.44020 Y0.51900
X1.43920 Y0.51900
X1.43920 Y0.51600
X1.43820 Y0.51600
X1.43820 Y0.51300
X1.43720 Y0.51300
X1.43720 Y0.51100
X1.43620 Y0.51100
X1.43620 Y0.50800
X1.43520 Y0.50800
X1.43520 Y0.50500
X1.43420 Y0.50500
X1.43420 Y0.50300
X1.43320 Y0.50300
X1.43320 Y0.50000
X1.43220 Y0.50000
X1.43220 Y0.49700
X1.43120 Y0.49700
X1.43120 Y0.49500
X1.43020 Y0.49500
X1.43020 Y0.49200
X1.42920 Y0.49200
X1.42920 Y0.48900
X1.42820 Y0.48900
X1.42820 Y0.48700
X1.42720 Y0.48700
X1.42720 Y0.48400
X1.42620 Y0.48400
X1.42620 Y0.48200
X1.42520 Y0.48200
X1.42520 Y0.47900
X1.42420 Y0.47900
X1.42420 Y0.47600
X1.42320 Y0.47600
X1.42320 Y0.47400
X1.42220 Y0.47400
X1.42220 Y0.47100
X1.42120 Y0.47100
X1.42120 Y0.46800
X1.42020 Y0.46800
X1.42020 Y0.46600
X1.41920 Y0.46600
X1.41920 Y0.46300
X1.41820 Y0.46300
X1.41820 Y0.46000
X1.41720 Y0.46000
X1.41720 Y0.45800
X1.41620 Y0.45800
X1.41620 Y0.45500
X1.41520 Y0.45500
X1.41520 Y0.45200
X1.41420 Y0.45200
X1.41420 Y0.45000
X1.41320 Y0.45000
X1.41320 Y0.44700
X1.41220 Y0.44700
X1.41220 Y0.44400
X1.41120 Y0.44400
X1.41120 Y0.44200
X1.41020 Y0.44200
X1.41020 Y0.43900
X1.40920 Y0.43900
X1.40920 Y0.43600
X1.40820 Y0.43600
X1.40820 Y0.43400
X1.40720 Y0.43400
X1.40720 Y0.43100
X1.40620 Y0.43100
X1.40620 Y0.42800
X1.40520 Y0.42800
X1.40520 Y0.42600
X1.40420 Y0.42600
X1.40420 Y0.42300
X1.40320 Y0.42300
X1.40320 Y0.42100
X1.40220 Y0.42100
X1.40220 Y0.41800
X1.40120 Y0.41800
X1.40120 Y0.41500
X1.40020 Y0.41500
X1.40020 Y0.41300
X1.39920 Y0.41300
X1.39920 Y0.41000
X1.39820 Y0.41000
X1.39820 Y0.40700
X1.39720 Y0.40700
X1.39720 Y0.40500
X1.39620 Y0.40500
X1.39620 Y0.40200
X1.39520 Y0.40200
X1.39520 Y0.39900
X1.39420 Y0.39900
X1.39420 Y0.39700
X1.39320 Y0.39700
X1.39320 Y0.39400
X1.39220 Y0.39400
X1.39220 Y0.39100
X1.39120 Y0.39100
X1.39120 Y0.38900
X1.39020 Y0.38900
X1.39020 Y0.38600
X1.38920 Y0.38600
X1.38920 Y0.38300
X1.38820 Y0.38300
X1.38820 Y0.38100
X1.38720 Y0.38100
X1.38720 Y0.37800
X1.38620 Y0.37800
X1.38620 Y0.37500
X1.38520 Y0.37500
X1.38520 Y0.37300
X1.38420 Y0.37300
X1.38420 Y0.37000
X1.38320 Y0.37000
X1.38320 Y0.36800
X1.38220 Y0.36800
X1.38220 Y0.36500
X1.38120 Y0.36500
X1.38120 Y0.36200
X1.38020 Y0.36200
X1.38020 Y0.36000
X1.37920 Y0.36000
X1.37920 Y0.35700
X1.37820 Y0.35700
X1.37820 Y0.35400
X1.37720 Y0.35400
X1.37720 Y0.35200
X1.37620 Y0.35200
X1.37620 Y0.34900
X1.37520 Y0.34900
X1.37520 Y0.34600
X1.37420 Y0.34600
X1.37420 Y0.34400
X1.37320 Y0.34400
X1.37320 Y0.34100
X1.37220 Y0.34100
X1.37220 Y0.33800
X1.37120 Y0.33800
X1.37120 Y0.33600
X1.37020 Y0.33600
X1.37020 Y0.33300
X1.36920 Y0.33300
X1.36920 Y0.33000
X1.36820 Y0.33000
X1.36820 Y0.32800
X1.36720 Y0.32800
X1.36720 Y0.32500
X1.36620 Y0.32500
X1.36620 Y0.32200
X1.36520 Y0.32200
X1.36520 Y0.32000
X1.36420 Y0.32000
X1.36420 Y0.31700
X1.36320 Y0.31700
X1.36320 Y0.31400
X1.36220 Y0.31400
X1.36220 Y0.31200
X1.36120 Y0.31200
X1.36120 Y0.30900
X1.36020 Y0.30900
X1.36020 Y0.30700
X1.35920 Y0.30700
X1.35920 Y0.30400
X1.35820 Y0.30400
X1.35820 Y0.30100
X1.35720 Y0.30100
X1.35720 Y0.29900
X1.35620 Y0.29900
X1.35620 Y0.29600
X1.35520 Y0.29600
X1.35520 Y0.29400
X1.35020 Y0.29400
X1.35020 Y0.29300
X1.34520 Y0.29300
X1.34520 Y0.29200
X1.34320 Y0.29200
X1.34320 Y0.29100
X1.34120 Y0.29100
X1.34120 Y0.29000
X1.34020 Y0.29000
X1.34020 Y0.28900
X1.33820 Y0.28900
X1.33820 Y0.28800
X1.33720 Y0.28800
X1.33720 Y0.28600
X1.33620 Y0.28600
X1.33620 Y0.28500
X1.33520 Y0.28500
X1.33520 Y0.28300
X1.33420 Y0.28300
X1.33420 Y0.28100
X1.33320 Y0.28100
X1.33320 Y0.27600
X1.33220 Y0.27600
X1.33220 Y0.24100
X1.33320 Y0.24100
X1.33320 Y0.23600
X1.33420 Y0.23600
X1.33420 Y0.23400
X1.33520 Y0.23400
X1.33520 Y0.23200
X1.33620 Y0.23200
X1.33620 Y0.23100
X1.33720 Y0.23100
X1.33720 Y0.22900
X1.33820 Y0.22900
X1.33820 Y0.22800
X1.34020 Y0.22800
X1.34020 Y0.22700
X1.34120 Y0.22700
X1.34120 Y0.22600
X1.34320 Y0.22600
X1.34320 Y0.22500
X1.34520 Y0.22500
X1.34520 Y0.22400
X1.35020 Y0.22400
X1.35020 Y0.22300
X1.38520 Y0.22300
X1.38520 Y0.22400
X1.39020 Y0.22400
X1.39020 Y0.22500
X1.39220 Y0.22500
X1.39220 Y0.22600
X1.39420 Y0.22600
X1.39420 Y0.22700
X1.39620 Y0.22700
X1.39620 Y0.22800
X1.39720 Y0.22800
X1.39720 Y0.22900
X1.39820 Y0.22900
X1.39820 Y0.23100
X1.39920 Y0.23100
X1.39920 Y0.23200
X1.40020 Y0.23200
X1.40020 Y0.23400
X1.40120 Y0.23400
X1.40120 Y0.23600
X1.40220 Y0.23600
X1.40220 Y0.24100
X1.40320 Y0.24100
X1.40320 Y0.26500
X1.40420 Y0.26500
X1.40420 Y0.26700
X1.40520 Y0.26700
X1.40520 Y0.27000
X1.40620 Y0.27000
X1.40620 Y0.27300
X1.40720 Y0.27300
X1.40720 Y0.27500
X1.40820 Y0.27500
X1.40820 Y0.27800
X1.40920 Y0.27800
X1.40920 Y0.28100
X1.41020 Y0.28100
X1.41020 Y0.28300
X1.41120 Y0.28300
X1.41120 Y0.28600
X1.41220 Y0.28600
X1.41220 Y0.28900
X1.41320 Y0.28900
X1.41320 Y0.29100
X1.41420 Y0.29100
X1.41420 Y0.29400
X1.41520 Y0.29400
X1.41520 Y0.29600
X1.41620 Y0.29600
X1.41620 Y0.29900
X1.41720 Y0.29900
X1.41720 Y0.30200
X1.41820 Y0.30200
X1.41820 Y0.30400
X1.41920 Y0.30400
X1.41920 Y0.30700
X1.42020 Y0.30700
X1.42020 Y0.31000
X1.42120 Y0.31000
X1.42120 Y0.31200
X1.42220 Y0.31200
X1.42220 Y0.31500
X1.42320 Y0.31500
X1.42320 Y0.31800
X1.42420 Y0.31800
X1.42420 Y0.32000
X1.42520 Y0.32000
X1.42520 Y0.32300
X1.42620 Y0.32300
X1.42620 Y0.32600
X1.42720 Y0.32600
X1.42720 Y0.32800
X1.42820 Y0.32800
X1.42820 Y0.33100
X1.42920 Y0.33100
X1.42920 Y0.33400
X1.43020 Y0.33400
X1.43020 Y0.33600
X1.43120 Y0.33600
X1.43120 Y0.33900
X1.43220 Y0.33900
X1.43220 Y0.34200
X1.43320 Y0.34200
X1.43320 Y0.34400
X1.43420 Y0.34400
X1.43420 Y0.34700
X1.43520 Y0.34700
X1.43520 Y0.35000
X1.43620 Y0.35000
X1.43620 Y0.35200
X1.43720 Y0.35200
X1.43720 Y0.35500
X1.43820 Y0.35500
X1.43820 Y0.35700
X1.43920 Y0.35700
X1.43920 Y0.36000
X1.44020 Y0.36000
X1.44020 Y0.36300
X1.44120 Y0.36300
X1.44120 Y0.36500
X1.44220 Y0.36500
X1.44220 Y0.36800
X1.44320 Y0.36800
X1.44320 Y0.37100
X1.44420 Y0.37100
X1.44420 Y0.37300
X1.44520 Y0.37300
X1.44520 Y0.37600
X1.44620 Y0.37600
X1.44620 Y0.37900
X1.44720 Y0.37900
X1.44720 Y0.38100
X1.44820 Y0.38100
X1.44820 Y0.38400
X1.44920 Y0.38400
X1.44920 Y0.38700
X1.45020 Y0.38700
X1.45020 Y0.38900
X1.45120 Y0.38900
X1.45120 Y0.39200
X1.45220 Y0.39200
X1.45220 Y0.39500
X1.45320 Y0.39500
X1.45320 Y0.39700
X1.45420 Y0.39700
X1.45420 Y0.40000
X1.45520 Y0.40000
X1.45520 Y0.40300
X1.45620 Y0.40300
X1.45620 Y0.40500
X1.45720 Y0.40500
X1.45720 Y0.40800
X1.45820 Y0.40800
X1.45820 Y0.41000
X1.45920 Y0.41000
X1.45920 Y0.41300
X1.46020 Y0.41300
X1.46020 Y0.41600
X1.46120 Y0.41600
X1.46120 Y0.41800
X1.46220 Y0.41800
X1.46220 Y0.42100
X1.46320 Y0.42100
X1.46320 Y0.42400
X1.46420 Y0.42400
X1.46420 Y0.42600
X1.46520 Y0.42600
X1.46520 Y0.42900
X1.46620 Y0.42900
X1.46620 Y0.43200
X1.46720 Y0.43200
X1.46720 Y0.43400
X1.46820 Y0.43400
X1.46820 Y0.43700
X1.46920 Y0.43700
X1.46920 Y0.44000
X1.47020 Y0.44000
X1.47020 Y0.44200
X1.47120 Y0.44200
X1.47120 Y0.44500
X1.47220 Y0.44500
X1.47220 Y0.44800
X1.47320 Y0.44800
X1.47320 Y0.45000
X1.47420 Y0.45000
X1.47420 Y0.45300
X1.47520 Y0.45300
X1.47520 Y0.45600
X1.47620 Y0.45600
X1.47620 Y0.45800
X1.47720 Y0.45800
X1.47720 Y0.46100
X1.47820 Y0.46100
X1.47820 Y0.46400
X1.47920 Y0.46400
X1.47920 Y0.46600
X1.48020 Y0.46600
X1.48020 Y0.46900
X1.48120 Y0.46900
X1.48120 Y0.47100
X1.48220 Y0.47100
X1.48220 Y0.47400
X1.48320 Y0.47400
X1.48320 Y0.47700
X1.48420 Y0.47700
X1.48420 Y0.47900
X1.48520 Y0.47900
X1.48520 Y0.48200
X1.48620 Y0.48200
X1.48620 Y0.48500
X1.48720 Y0.48500
X1.48720 Y0.48700
X1.48820 Y0.48700
X1.48820 Y0.49000
X1.48920 Y0.49000
X1.48920 Y0.49300
X1.49020 Y0.49300
X1.49020 Y0.49500
X1.49120 Y0.49500
X1.49120 Y0.49800
X1.49220 Y0.49800
X1.49220 Y0.50100
X1.49320 Y0.50100
X1.49320 Y0.50300
X1.49420 Y0.50300
X1.49420 Y0.50600
X1.49520 Y0.50600
X1.49520 Y0.50900
X1.49620 Y0.50900
X1.49620 Y0.51100
X1.49720 Y0.51100
X1.49720 Y0.51400
X1.49820 Y0.51400
X1.49820 Y0.51700
X1.49920 Y0.51700
X1.49920 Y0.51900
X1.50020 Y0.51900
X1.50020 Y0.52200
X1.50120 Y0.52200
X1.50120 Y0.52400
X1.50220 Y0.52400
X1.50220 Y0.52700
X1.50320 Y0.52700
X1.50320 Y0.53000
X1.50420 Y0.53000
X1.50420 Y0.53200
X1.50520 Y0.53200
X1.50520 Y0.53500
X1.50620 Y0.53500
X1.50620 Y0.53800
X1.50720 Y0.53800
X1.50720 Y0.54000
X1.50820 Y0.54000
X1.50820 Y0.54300
X1.50920 Y0.54300
X1.50920 Y0.54600
X1.51020 Y0.54600
X1.51020 Y0.54800
X1.51120 Y0.54800
X1.51120 Y0.55100
X1.51220 Y0.55100
X1.51220 Y0.55400
X1.51320 Y0.55400
X1.51320 Y0.55600
X1.51420 Y0.55600
X1.51420 Y0.55900
X1.51520 Y0.55900
X1.51520 Y0.56200
X1.51620 Y0.56200
X1.51620 Y0.56400
X1.51720 Y0.56400
X1.51720 Y0.56700
X1.51820 Y0.56700
X1.51820 Y0.57000
X1.51920 Y0.57000
X1.51920 Y0.57200
X1.52020 Y0.57200
X1.52020 Y0.57500
X1.52120 Y0.57500
X1.52120 Y0.57800
X1.52220 Y0.57800
X1.52220 Y0.58000
X1.52320 Y0.58000
X1.52320 Y0.58300
X1.52420 Y0.58300
X1.52420 Y0.58500
X1.52520 Y0.58500
X1.52520 Y0.58800
X1.52620 Y0.58800
X1.52620 Y0.59100
X1.52720 Y0.59100
X1.52720 Y0.59300
X1.52820 Y0.59300
X1.52820 Y0.59600
X1.52920 Y0.59600
X1.52920 Y0.59900
X1.53020 Y0.59900
X1.53020 Y0.60100
X1.53120 Y0.60100
X1.53120 Y0.60400
X1.53220 Y0.60400
X1.53220 Y0.60700
X1.53320 Y0.60700
X1.53320 Y0.60900
X1.53420 Y0.60900
X1.53420 Y0.61200
X1.53520 Y0.61200
X1.53520 Y0.61500
X1.53620 Y0.61500
X1.53620 Y0.61700
X1.53720 Y0.61700
X1.53720 Y0.62000
X1.53820 Y0.62000
X1.53820 Y0.62300
X1.53920 Y0.62300
X1.53920 Y0.62500
X1.54020 Y0.62500
X1.54020 Y0.62800
X1.54120 Y0.62800
X1.54120 Y0.63100
X1.54220 Y0.63100
X1.54220 Y0.63300
X1.54320 Y0.63300
X1.54320 Y0.63600
X1.54420 Y0.63600
X1.54420 Y0.63800
X1.54520 Y0.63800
X1.54520 Y0.64100
X1.54620 Y0.64100
X1.54620 Y0.64400
X1.54720 Y0.64400
X1.54720 Y0.64600
X1.54820 Y0.64600
X1.54820 Y0.64900
X1.54920 Y0.64900
X1.54920 Y0.65200
X1.55020 Y0.65200
X1.55020 Y0.65400
X1.55120 Y0.65400
X1.55120 Y0.65700
X1.55220 Y0.65700
X1.55220 Y0.66000
X1.55320 Y0.66000
X1.55320 Y0.66200
X1.55420 Y0.66200
X1.55420 Y0.66500
X1.55520 Y0.66500
X1.55520 Y0.66800
X1.55620 Y0.66800
X1.55620 Y0.67000
X1.55720 Y0.67000
X1.55720 Y0.67300
X1.55820 Y0.67300
X1.55820 Y0.67600
X1.55920 Y0.67600
X1.55920 Y0.67800
X1.56020 Y0.67800
X1.56020 Y0.68100
X1.56120 Y0.68100
X1.56120 Y0.68400
X1.56220 Y0.68400
X1.56220 Y0.68600
X1.56320 Y0.68600
X1.56320 Y0.68900
X1.56420 Y0.68900
X1.56420 Y0.69200
X1.56520 Y0.69200
X1.56520 Y0.69400
X1.56620 Y0.69400
X1.56620 Y0.69700
X1.56720 Y0.69700
X1.56720 Y0.69900
X1.56820 Y0.69900
X1.56820 Y0.70200
X1.56920 Y0.70200
X1.56920 Y0.70500
X1.57020 Y0.70500
X1.57020 Y0.70700
X1.57120 Y0.70700
X1.57120 Y0.71000
X1.57220 Y0.71000
X1.57220 Y0.71300
X1.57320 Y0.71300
X1.57320 Y0.71500
X1.57420 Y0.71500
X1.57420 Y0.71800
X1.57520 Y0.71800
X1.57520 Y0.72100
X1.57620 Y0.72100
X1.57620 Y0.72300
X1.57720 Y0.72300
X1.57720 Y0.72600
X1.57820 Y0.72600
X1.57820 Y0.72900
X1.57920 Y0.72900
X1.57920 Y0.73100
X1.58020 Y0.73100
X1.58020 Y0.73400
X1.58120 Y0.73400
X1.58120 Y0.73700
X1.58220 Y0.73700
X1.58220 Y0.73900
X1.58320 Y0.73900
X1.58320 Y0.74200
X1.58420 Y0.74200
X1.58420 Y0.74500
X1.58520 Y0.74500
X1.58520 Y0.74700
X1.58620 Y0.74700
X1.58620 Y0.75000
X1.58720 Y0.75000
X1.58720 Y0.75200
X1.58820 Y0.75200
X1.58820 Y0.75500
X1.58920 Y0.75500
X1.58920 Y0.75800
X1.59020 Y0.75800
X1.59020 Y0.76000
X1.59120 Y0.76000
X1.59120 Y0.76300
X1.59220 Y0.76300
X1.59220 Y0.76600
X1.59320 Y0.76600
X1.59320 Y0.76800
X1.59420 Y0.76800
X1.59420 Y0.77100
X1.59520 Y0.77100
X1.59520 Y0.77400
X1.59620 Y0.77400
X1.59620 Y0.77600
X1.59720 Y0.77600
X1.59720 Y0.77900
X1.59820 Y0.77900
X1.59820 Y0.78200
X1.59920 Y0.78200
X1.59920 Y0.78400
X1.60020 Y0.78400
X1.60020 Y0.78700
X1.60120 Y0.78700
X1.60120 Y0.79000
X1.60220 Y0.79000
X1.60220 Y0.79200
X1.60320 Y0.79200
X1.60320 Y0.79500
X1.60420 Y0.79500
X1.60420 Y0.79800
X1.60520 Y0.79800
X1.60520 Y0.80000
X1.60620 Y0.80000
X1.60620 Y0.80300
X1.60720 Y0.80300
X1.60720 Y0.80600
X1.60820 Y0.80600
X1.60820 Y0.80800
X1.60920 Y0.80800
X1.60920 Y0.81100
X1.61020 Y0.81100
X1.61020 Y0.81300
X1.61120 Y0.81300
X1.61120 Y0.81600
X1.61220 Y0.81600
X1.61220 Y0.81900
X1.61320 Y0.81900
X1.61320 Y0.82100
X1.61420 Y0.82100
X1.61420 Y0.82400
X1.61520 Y0.82400
X1.61520 Y0.82700
X1.61620 Y0.82700
X1.61620 Y0.82900
X1.61720 Y0.82900
X1.61720 Y0.83200
X1.61820 Y0.83200
X1.61820 Y0.83500
X1.61920 Y0.83500
X1.61920 Y0.83700
X1.62020 Y0.83700
X1.62020 Y0.84000
X1.62120 Y0.84000
X1.62120 Y0.84300
X1.62220 Y0.84300
X1.62220 Y0.84500
X1.62320 Y0.84500
X1.62320 Y0.84800
X1.62420 Y0.84800
X1.62420 Y0.85100
X1.62520 Y0.85100
X1.62520 Y0.85300
X1.62620 Y0.85300
X1.62620 Y0.85600
X1.62720 Y0.85600
X1.62720 Y0.85900
X1.62820 Y0.85900
X1.62820 Y0.86100
X1.62920 Y0.86100
X1.62920 Y0.86400
X1.63020 Y0.86400
X1.63020 Y0.86600
X1.63120 Y0.86600
X1.63120 Y0.86900
X1.63220 Y0.86900
X1.63220 Y0.87200
X1.63320 Y0.87200
X1.63320 Y0.87400
X1.63420 Y0.87400
X1.63420 Y0.87700
X1.63520 Y0.87700
X1.63520 Y0.88000
X1.63620 Y0.88000
X1.63620 Y0.88200
X1.63720 Y0.88200
X1.63720 Y0.88500
X1.63820 Y0.88500
X1.63820 Y0.88800
X1.63920 Y0.88800
X1.63920 Y0.89000
X1.64020 Y0.89000
X1.64020 Y0.89300
X1.64120 Y0.89300
X1.64120 Y0.89600
X1.64220 Y0.89600
X1.64220 Y0.89800
X1.64320 Y0.89800
X1.64320 Y0.90100
X1.64420 Y0.90100
X1.64420 Y0.90400
X1.64520 Y0.90400
X1.64520 Y0.90600
X1.64620 Y0.90600
X1.64620 Y0.90900
X1.64720 Y0.90900
X1.64720 Y0.91200
X1.64820 Y0.91200
X1.64820 Y0.91400
X1.64920 Y0.91400
X1.64920 Y0.91700
X1.65020 Y0.91700
X1.65020 Y0.92000
X1.65120 Y0.92000
X1.65120 Y0.92200
X1.65220 Y0.92200
X1.65220 Y0.92500
X1.65320 Y0.92500
X1.65320 Y0.92700
X1.65420 Y0.92700
X1.65420 Y0.93000
X1.65520 Y0.93000
X1.65520 Y0.93300
X1.65620 Y0.93300
X1.65620 Y0.93500
X1.65720 Y0.93500
X1.65720 Y0.93800
X1.65820 Y0.93800
X1.65820 Y0.94100
X1.65920 Y0.94100
X1.65920 Y0.94300
X1.66020 Y0.94300
X1.66020 Y0.94600
X1.66120 Y0.94600
X1.66120 Y0.94900
X1.66220 Y0.94900
X1.66220 Y0.95100
X1.66320 Y0.95100
X1.66320 Y0.95400
X1.66420 Y0.95400
X1.66420 Y0.95700
X1.66520 Y0.95700
X1.66520 Y0.95900
X1.66620 Y0.95900
X1.66620 Y0.96200
X1.66720 Y0.96200
X1.66720 Y0.96500
X1.66820 Y0.96500
X1.66820 Y0.96700
X1.66920 Y0.96700
X1.66920 Y0.97000
X1.67020 Y0.97000
X1.67020 Y0.97300
X1.67120 Y0.97300
X1.67120 Y0.97500
X1.67220 Y0.97500
X1.67220 Y0.97800
X1.67320 Y0.97800
X1.67320 Y0.98000
X1.67420 Y0.98000
X1.67420 Y0.98300
X1.67520 Y0.98300
X1.67520 Y0.98600
X1.67620 Y0.98600
X1.67620 Y0.98800
X1.67720 Y0.98800
X1.67720 Y0.99100
X1.67820 Y0.99100
X1.67820 Y0.99400
X1.67920 Y0.99400
X1.67920 Y0.99600
X1.68020 Y0.99600
X1.68020 Y0.99900
X1.68120 Y0.99900
X1.68120 Y1.00200
X1.68220 Y1.00200
X1.68220 Y1.00400
X1.68320 Y1.00400
X1.68320 Y1.00700
X1.68420 Y1.00700
X1.68420 Y1.01000
X1.68520 Y1.01000
X1.68520 Y1.01200
X1.68620 Y1.01200
X1.68620 Y1.01500
X1.68720 Y1.01500
X1.68720 Y1.01800
X1.68820 Y1.01800
X1.68820 Y1.02000
X1.68920 Y1.02000
X1.68920 Y1.02300
X1.69020 Y1.02300
X1.69020 Y1.02600
X1.69120 Y1.02600
X1.69120 Y1.02800
X1.69220 Y1.02800
X1.69220 Y1.03100
X1.69320 Y1.03100
X1.69320 Y1.03400
X1.69420 Y1.03400
X1.69420 Y1.03600
X1.69520 Y1.03600
X1.69520 Y1.03900
X1.69620 Y1.03900
X1.69620 Y1.04100
X1.69720 Y1.04100
X1.69720 Y1.04400
X1.69820 Y1.04400
X1.69820 Y1.04700
X1.69920 Y1.04700
X1.69920 Y1.04900
X1.70020 Y1.04900
X1.70020 Y1.05200
X1.70120 Y1.05200
X1.70120 Y1.05500
X1.70220 Y1.05500
X1.70220 Y1.05700
X1.70320 Y1.05700
X1.70320 Y1.06000
X1.70420 Y1.06000
X1.70420 Y1.06300
X1.70520 Y1.06300
X1.70520 Y1.06500
X1.70620 Y1.06500
X1.70620 Y1.06800
X1.70720 Y1.06800
X1.70720 Y1.07100
X1.70820 Y1.07100
X1.70820 Y1.07300
X1.70920 Y1.07300
X1.70920 Y1.07600
X1.71020 Y1.07600
X1.71020 Y1.07900
X1.71120 Y1.07900
X1.71120 Y1.08100
X1.71220 Y1.08100
X1.71220 Y1.08400
X1.71320 Y1.08400
X1.71320 Y1.08700
X1.71420 Y1.08700
X1.71420 Y1.08900
X1.71520 Y1.08900
X1.71520 Y1.09200
X1.71620 Y1.09200
X1.71620 Y1.09400
X1.71720 Y1.09400
X1.71720 Y1.09700
X1.71820 Y1.09700
X1.71820 Y1.10000
X1.71920 Y1.10000
X1.71920 Y1.10200
X1.72020 Y1.10200
X1.72020 Y1.10500
X1.72120 Y1.10500
X1.72120 Y1.10800
X1.72220 Y1.10800
X1.72220 Y1.11000
X1.72320 Y1.11000
X1.72320 Y1.11300
X1.72420 Y1.11300
X1.72420 Y1.11600
X1.72520 Y1.11600
X1.72520 Y1.11800
X1.72620 Y1.11800
X1.72620 Y1.12100
X1.72720 Y1.12100
X1.72720 Y1.12400
X1.72820 Y1.12400
X1.72820 Y1.12600
X1.72920 Y1.12600
X1.72920 Y1.12900
X1.73020 Y1.12900
X1.73020 Y1.13200
X1.73120 Y1.13200
X1.73120 Y1.13400
X1.73220 Y1.13400
X1.73220 Y1.13700
X1.73320 Y1.13700
X1.73320 Y1.14000
X1.73420 Y1.14000
X1.73420 Y1.14200
X1.73520 Y1.14200
X1.73520 Y1.14500
X1.73620 Y1.14500
X1.73620 Y1.14800
X1.73720 Y1.14800
X1.73720 Y1.15000
X1.73820 Y1.15000
X1.73820 Y1.15300
X1.73920 Y1.15300
X1.73920 Y1.15500
X1.74020 Y1.15500
X1.74020 Y1.15800
X1.74120 Y1.15800
X1.74120 Y1.16100
X1.74220 Y1.16100
X1.74220 Y1.16300
X1.74320 Y1.16300
X1.74320 Y1.16600
X1.74420 Y1.16600
X1.74420 Y1.16900
X1.74520 Y1.16900
X1.74520 Y1.17100
X1.74620 Y1.17100
X1.74620 Y1.17400
X1.74720 Y1.17400
X1.74720 Y1.17700
X1.74820 Y1.17700
X1.74820 Y1.17900
X1.74920 Y1.17900
X1.74920 Y1.18200
X1.75020 Y1.18200
X1.75020 Y1.18500
X1.75120 Y1.18500
X1.75120 Y1.18700
X1.75220 Y1.18700
X1.75220 Y1.19000
X1.75320 Y1.19000
X1.75320 Y1.19300
X1.75420 Y1.19300
X1.75420 Y1.19500
X1.75520 Y1.19500
X1.75520 Y1.19800
X1.75620 Y1.19800
X1.75620 Y1.20100
X1.75720 Y1.20100
X1.75720 Y1.20300
X1.75820 Y1.20300
X1.75820 Y1.20600
X1.75920 Y1.20600
X1.75920 Y1.20800
X1.76020 Y1.20800
X1.76020 Y1.21100
X1.76120 Y1.21100
X1.76120 Y1.21400
X1.76220 Y1.21400
X1.76220 Y1.21600
X1.76320 Y1.21600
X1.76320 Y1.21900
X1.76420 Y1.21900
X1.76420 Y1.22200
X1.76520 Y1.22200
X1.76520 Y1.22400
X1.76620 Y1.22400
X1.76620 Y1.22700
X1.76720 Y1.22700
X1.76720 Y1.23000
X1.76820 Y1.23000
X1.76820 Y1.23200
X1.76920 Y1.23200
X1.76920 Y1.23500
X1.77020 Y1.23500
X1.77020 Y1.23800
X1.77120 Y1.23800
X1.77120 Y1.24000
X1.77220 Y1.24000
X1.77220 Y1.24300
X1.77320 Y1.24300
X1.77320 Y1.24600
X1.77420 Y1.24600
X1.77420 Y1.24800
X1.77520 Y1.24800
X1.77520 Y1.25100
X1.77620 Y1.25100
X1.77620 Y1.25400
X1.77720 Y1.25400
X1.77720 Y1.25600
X1.77820 Y1.25600
X1.77820 Y1.25900
X1.77920 Y1.25900
X1.77920 Y1.26200
X1.78020 Y1.26200
X1.78020 Y1.26400
X1.78120 Y1.26400
X1.78120 Y1.26700
X1.78220 Y1.26700
X1.78220 Y1.26900
X1.78320 Y1.26900
X1.78320 Y1.27200
X1.78420 Y1.27200
X1.78420 Y1.27500
X1.78520 Y1.27500
X1.78520 Y1.27700
X1.78620 Y1.27700
X1.78620 Y1.28000
X1.78720 Y1.28000
X1.78720 Y1.28300
X1.78820 Y1.28300
X1.78820 Y1.28500
X1.78920 Y1.28500
X1.78920 Y1.28800
X1.79020 Y1.28800
X1.79020 Y1.29100
X1.79120 Y1.29100
X1.79120 Y1.29300
X1.79220 Y1.29300
X1.79220 Y1.29600
X1.79320 Y1.29600
X1.79320 Y1.29900
X1.79420 Y1.29900
X1.79420 Y1.30100
X1.79520 Y1.30100
X1.79520 Y1.30400
X1.79620 Y1.30400
X1.79620 Y1.30700
X1.79720 Y1.30700
X1.79720 Y1.30900
X1.79820 Y1.30900
X1.79820 Y1.31200
X1.79920 Y1.31200
X1.79920 Y1.31500
X1.80020 Y1.31500
X1.80020 Y1.31700
X1.80120 Y1.31700
X1.80120 Y1.32000
X1.80220 Y1.32000
X1.80220 Y1.32200
X1.80320 Y1.32200
X1.80320 Y1.32500
X1.80420 Y1.32500
X1.80420 Y1.32800
X1.80520 Y1.32800
X1.80520 Y1.33000
X1.80620 Y1.33000
X1.80620 Y1.33300
X1.80720 Y1.33300
X1.80720 Y1.33600
X1.80820 Y1.33600
X1.80820 Y1.33800
X1.80920 Y1.33800
X1.80920 Y1.34100
X1.81020 Y1.34100
X1.81020 Y1.34400
X1.81120 Y1.34400
X1.81120 Y1.34600
X1.81220 Y1.34600
X1.81220 Y1.34900
X1.81320 Y1.34900
X1.81320 Y1.35200
X1.81420 Y1.35200
X1.81420 Y1.35300
X1.81520 Y1.35300
X1.81520 Y1.35400
X1.82020 Y1.35400
X1.82020 Y1.35500
X1.82220 Y1.35500
X1.82220 Y1.35600
X1.82420 Y1.35600
X1.82420 Y1.35700
X1.82620 Y1.35700
X1.82620 Y1.35800
X1.82720 Y1.35800
X1.82720 Y1.35900
X1.82820 Y1.35900
X1.82820 Y1.36100
X1.82920 Y1.36100
X1.82920 Y1.36200
X1.83020 Y1.36200
X1.83020 Y1.36400
X1.83120 Y1.36400
X1.83120 Y1.36600
X1.83220 Y1.36600
X1.83220 Y1.37100
X1.83320 Y1.37100
X1.83320 Y1.40600
X1.83220 Y1.40600
X1.83220 Y1.41100
X1.83120 Y1.41100
X1.83120 Y1.41300
X1.83020 Y1.41300
X1.83020 Y1.41500
X1.82920 Y1.41500
X1.82920 Y1.41600
X1.82820 Y1.41600
X1.82820 Y1.41800
X1.82720 Y1.41800
X1.82720 Y1.41900
X1.82620 Y1.41900
X1.82620 Y1.42000
X1.82420 Y1.42000
X1.82420 Y1.42100
X1.82220 Y1.42100
X1.82220 Y1.42200
X1.82020 Y1.42200
X1.82020 Y1.42300
X1.81520 Y1.42300
X1.81520 Y1.42400
X1.78020 Y1.42400
X1.78020 Y1.42300
X1.77520 Y1.42300
X1.77520 Y1.42200
X1.77320 Y1.42200
X1.77320 Y1.42100
X1.77120 Y1.42100
X1.77120 Y1.42000
X1.77020 Y1.42000
X1.77020 Y1.41900
X1.76820 Y1.41900
X1.76820 Y1.41800
X1.76720 Y1.41800
X1.76720 Y1.41600
X1.76620 Y1.41600
X1.76620 Y1.41500
X1.76520 Y1.41500
X1.76520 Y1.41300
X1.76420 Y1.41300
X1.76420 Y1.41100
X1.76320 Y1.41100
X1.76320 Y1.40800
G04 P0 ( dwell for no time -- G64 should not smooth over this point )
G00 Z0.11811 ( retract )

G00 X0.52420 Y1.12000 ( rapid move to begin. )
G01 Z0.00000 F7.87402 ( plunge. )
G04 P0 ( dwell for no time -- G64 should not smooth over this point )
X0.52420 Y1.12000
X0.52320 Y1.12000
X0.52320 Y1.11900
X0.52220 Y1.11900
X0.52220 Y1.11800
X0.52120 Y1.11800
X0.52120 Y1.05900
X0.52220 Y1.05900
X0.52220 Y1.05800
X0.52320 Y1.05800
X0.52320 Y1.05700
X0.52420 Y1.05700
X0.52420 Y1.05600
X0.52520 Y1.05600
X0.52520 Y1.05500
X0.52620 Y1.05500
X0.52620 Y1.05400
X0.52720 Y1.05400
X0.52720 Y1.05300
X0.52820 Y1.05300
X0.52820 Y1.05200
X0.52920 Y1.05200
X0.52920 Y1.05100
X0.53020 Y1.05100
X0.53020 Y1.05000
X0.53120 Y1.05000
X0.53120 Y1.04900
X0.53220 Y1.04900
X0.53220 Y1.04800
X0.53320 Y1.04800
X0.53320 Y1.04700
X0.53420 Y1.04700
X0.53420 Y1.04600
X0.53520 Y1.04600
X0.53520 Y1.04500
X0.53620 Y1.04500
X0.53620 Y1.04400
X0.53720 Y1.04400
X0.53720 Y1.04300
X0.53820 Y1.04300
X0.53820 Y1.04200
X0.59720 Y1.04200
X0.59720 Y1.04300
X0.59820 Y1.04300
X0.59820 Y1.04400
X0.59920 Y1.04400
X0.59920 Y1.04500
X0.60020 Y1.04500
X0.60020 Y1.04600
X0.60120 Y1.04600
X0.60120 Y1.04700
X0.60220 Y1.04700
X0.60220 Y1.04800
X0.60320 Y1.04800
X0.60320 Y1.04900
X0.60420 Y1.04900
X0.60420 Y1.05000
X0.60520 Y1.05000
X0.60520 Y1.05100
X0.60620 Y1.05100
X0.60620 Y1.05200
X0.60720 Y1.05200
X0.60720 Y1.05300
X0.60820 Y1.05300
X0.60820 Y1.05400
X0.60920 Y1.05400
X0.60920 Y1.05500
X0.61020 Y1.05500
X0.61020 Y1.05600
X0.61120 Y1.05600
X0.61120 Y1.05700
X0.61220 Y1.05700
X0.61220 Y1.05800
X0.61320 Y1.05800
X0.61320 Y1.05900
X0.61420 Y1.05900
X0.61420 Y1.06000
X0.61520 Y1.06000
X0.61520 Y1.11700
X0.61420 Y1.11700
X0.61420 Y1.11800
X0.61320 Y1.11800
X0.61320 Y1.11900
X0.61220 Y1.11900
X0.61220 Y1.12000
X0.61120 Y1.12000
X0.61120 Y1.12100
X0.61020 Y1.12100
X0.61020 Y1.12200
X0.60920 Y1.12200
X0.60920 Y1.12300
X0.60820 Y1.12300
X0.60820 Y1.12400
X0.60720 Y1.12400
X0.60720 Y1.12500
X0.60620 Y1.12500
X0.60620 Y1.12600
X0.60520 Y1.12600
X0.60520 Y1.12700
X0.60420 Y1.12700
X0.60420 Y1.12800
X0.60320 Y1.12800
X0.60320 Y1.12900
X0.60220 Y1.12900
X0.60220 Y1.13000
X0.60120 Y1.13000
X0.60120 Y1.13100
X0.60020 Y1.13100
X0.60020 Y1.13200
X0.59920 Y1.13200
X0.59920 Y1.13300
X0.59820 Y1.13300
X0.59820 Y1.13400
X0.59720 Y1.13400
X0.59720 Y1.13500
X0.59620 Y1.13500
X0.59620 Y1.13600
X0.53920 Y1.13600
X0.53920 Y1.13500
X0.53820 Y1.13500
X0.53820 Y1.13400
X0.53720 Y1.13400
X0.53720 Y1.13300
X0.53620 Y1.13300
X0.53620 Y1.13200
X0.53520 Y1.13200
X0.53520 Y1.13100
X0.53420 Y1.13100
X0.53420 Y1.13000
X0.53320 Y1.13000
X0.53320 Y1.12900
X0.53220 Y1.12900
X0.53220 Y1.12800
X0.53120 Y1.12800
X0.53120 Y1.12700
X0.53020 Y1.12700
X0.53020 Y1.12600
X0.52920 Y1.12600
X0.52920 Y1.12500
X0.52820 Y1.12500
X0.52820 Y1.12400
X0.52720 Y1.12400
X0.52720 Y1.12300
X0.52620 Y1.12300
X0.52620 Y1.12200
X0.52520 Y1.12200
X0.52520 Y1.12100
X0.52420 Y1.12100
X0.52420 Y1.12000
G04 P0 ( dwell for no time -- G64 should not smooth over this point )
G00 Z0.11811 ( retract )

G00 X0.62420 Y1.11900 ( rapid move to begin. )
G01 Z0.00000 F7.87402 ( plunge. )
G04 P0 ( dwell for no time -- G64 should not smooth over this point )
X0.62420 Y1.11900
X0.62420 Y1.11800
X0.62320 Y1.11800
X0.62320 Y1.11500
X0.62220 Y1.11500
X0.62220 Y1.11200
X0.62120 Y1.11200
X0.62120 Y1.06500
X0.62220 Y1.06500
X0.62220 Y1.06100
X0.62320 Y1.06100
X0.62320 Y1.05900
X0.62420 Y1.05900
X0.62420 Y1.05700
X0.62520 Y1.05700
X0.62520 Y1.05600
X0.62620 Y1.05600
X0.62620 Y1.05500
X0.62720 Y1.05500
X0.62720 Y1.05300
X0.62820 Y1.05300
X0.62820 Y1.05200
X0.62920 Y1.05200
X0.62920 Y1.05100
X0.63020 Y1.05100
X0.63020 Y1.04900
X0.63220 Y1.04900
X0.63220 Y1.04800
X0.63420 Y1.04800
X0.63420 Y1.04700
X0.63520 Y1.04700
X0.63520 Y1.04600
X0.63720 Y1.04600
X0.63720 Y1.04500
X0.63920 Y1.04500
X0.63920 Y1.04400
X0.64020 Y1.04400
X0.64020 Y1.04300
X0.64620 Y1.04300
X0.64620 Y1.04200
X0.68920 Y1.04200
X0.68920 Y1.04300
X0.69520 Y1.04300
X0.69520 Y1.04400
X0.69620 Y1.04400
X0.69620 Y1.04500
X0.69820 Y1.04500
X0.69820 Y1.04600
X0.70020 Y1.04600
X0.70020 Y1.04700
X0.70120 Y1.04700
X0.70120 Y1.04800
X0.70320 Y1.04800
X0.70320 Y1.04900
X0.70520 Y1.04900
X0.70520 Y1.05100
X0.70620 Y1.05100
X0.70620 Y1.05200
X0.70720 Y1.05200
X0.70720 Y1.05300
X0.70820 Y1.05300
X0.70820 Y1.05500
X0.70920 Y1.05500
X0.70920 Y1.05600
X0.71020 Y1.05600
X0.71020 Y1.05700
X0.71120 Y1.05700
X0.71120 Y1.05900
X0.71220 Y1.05900
X0.71220 Y1.06100
X0.71320 Y1.06100
X0.71320 Y1.06500
X0.71420 Y1.06500
X0.71420 Y1.11200
X0.71320 Y1.11200
X0.71320 Y1.11600
X0.71220 Y1.11600
X0.71220 Y1.11800
X0.71120 Y1.11800
X0.71120 Y1.12000
X0.71020 Y1.12000
X0.71020 Y1.12100
X0.70920 Y1.12100
X0.70920 Y1.12200
X0.70820 Y1.12200
X0.70820 Y1.12400
X0.70720 Y1.12400
X0.70720 Y1.12500
X0.70620 Y1.12500
X0.70620 Y1.12600
X0.70520 Y1.12600
X0.70520 Y1.12800
X0.70320 Y1.12800
X0.70320 Y1.12900
X0.70120 Y1.12900
X0.70120 Y1.13000
X0.70020 Y1.13000
X0.70020 Y1.13100
X0.69820 Y1.13100
X0.69820 Y1.13200
X0.69620 Y1.13200
X0.69620 Y1.13300
X0.69520 Y1.13300
X0.69520 Y1.13400
X0.68920 Y1.13400
X0.68920 Y1.13500
X0.64620 Y1.13500
X0.64620 Y1.13400
X0.64020 Y1.13400
X0.64020 Y1.13300
X0.63920 Y1.13300
X0.63920 Y1.13200
X0.63720 Y1.13200
X0.63720 Y1.13100
X0.63520 Y1.13100
X0.63520 Y1.13000
X0.63420 Y1.13000
X0.63420 Y1.12900
X0.63220 Y1.12900
X0.63220 Y1.12800
X0.63020 Y1.12800
X0.63020 Y1.12600
X0.62920 Y1.12600
X0.62920 Y1.12500
X0.62820 Y1.12500
X0.62820 Y1.12400
X0.62720 Y1.12400
X0.62720 Y1.12200
X0.62620 Y1.12200
X0.62620 Y1.12100
X0.62520 Y1.12100
X0.62520 Y1.12000
X0.62420 Y1.12000
X0.62420 Y1.11900
G04 P0 ( dwell for no time -- G64 should not smooth over this point )
G00 Z0.11811 ( retract )

G00 X0.21920 Y1.06800 ( rapid move to begin. )
G01 Z0.00000 F7.87402 ( plunge. )
G04 P0 ( dwell for no time -- G64 should not smooth over this point )
X0.21920 Y1.06800
X0.21820 Y1.06800
X0.21820 Y1.06700
X0.21720 Y1.06700
X0.21720 Y1.06500
X0.21620 Y1.06500
X0.21620 Y1.06300
X0.21520 Y1.06300
X0.21520 Y1.06000
X0.21420 Y1.06000
X0.21420 Y1.05700
X0.21320 Y1.05700
X0.21320 Y1.05400
X0.21220 Y1.05400
X0.21220 Y1.00500
X0.21320 Y1.00500
X0.21320 Y1.00200
X0.21420 Y1.00200
X0.21420 Y0.99900
X0.21520 Y0.99900
X0.21520 Y0.99600
X0.21620 Y0.99600
X0.21620 Y0.99400
X0.21720 Y0.99400
X0.21720 Y0.99300
X0.21820 Y0.99300
X0.21820 Y0.99100
X0.21920 Y0.99100
X0.21920 Y0.98900
X0.22020 Y0.98900
X0.22020 Y0.98800
X0.22120 Y0.98800
X0.22120 Y0.98700
X0.22220 Y0.98700
X0.22220 Y0.98600
X0.22320 Y0.98600
X0.22320 Y0.98500
X0.22420 Y0.98500
X0.22420 Y0.98400
X0.22620 Y0.98400
X0.22620 Y0.98300
X0.22720 Y0.98300
X0.22720 Y0.98200
X0.22920 Y0.98200
X0.22920 Y0.98100
X0.23120 Y0.98100
X0.23120 Y0.98000
X0.23220 Y0.98000
X0.23220 Y0.97900
X0.23420 Y0.97900
X0.23420 Y0.97800
X0.23620 Y0.97800
X0.23620 Y0.97700
X0.24020 Y0.97700
X0.24020 Y0.97600
X0.24620 Y0.97600
X0.24620 Y0.97500
X0.28720 Y0.97500
X0.28720 Y0.97600
X0.29320 Y0.97600
X0.29320 Y0.97700
X0.29720 Y0.97700
X0.29720 Y0.97800
X0.29920 Y0.97800
X0.29920 Y0.97900
X0.30120 Y0.97900
X0.30120 Y0.98000
X0.30220 Y0.98000
X0.30220 Y0.98100
X0.30420 Y0.98100
X0.30420 Y0.98200
X0.30620 Y0.98200
X0.30620 Y0.98300
X0.30720 Y0.98300
X0.30720 Y0.98400
X0.30920 Y0.98400
X0.30920 Y0.98500
X0.31020 Y0.98500
X0.31020 Y0.98600
X0.31120 Y0.98600
X0.31120 Y0.98700
X0.31220 Y0.98700
X0.31220 Y0.98800
X0.31320 Y0.98800
X0.31320 Y0.98900
X0.31420 Y0.98900
X0.31420 Y0.99100
X0.31520 Y0.99100
X0.31520 Y0.99200
X0.31620 Y0.99200
X0.31620 Y0.99400
X0.31720 Y0.99400
X0.31720 Y0.99600
X0.31820 Y0.99600
X0.31820 Y0.99800
X0.31920 Y0.99800
X0.31920 Y1.00200
X0.32020 Y1.00200
X0.32020 Y1.00500
X0.32120 Y1.00500
X0.32120 Y1.05400
X0.32020 Y1.05400
X0.32020 Y1.05700
X0.31920 Y1.05700
X0.31920 Y1.06100
X0.31820 Y1.06100
X0.31820 Y1.06300
X0.31720 Y1.06300
X0.31720 Y1.06500
X0.31620 Y1.06500
X0.31620 Y1.06700
X0.31520 Y1.06700
X0.31520 Y1.06800
X0.31420 Y1.06800
X0.31420 Y1.07000
X0.31320 Y1.07000
X0.31320 Y1.07100
X0.31220 Y1.07100
X0.31220 Y1.07200
X0.31120 Y1.07200
X0.31120 Y1.07300
X0.31020 Y1.07300
X0.31020 Y1.07400
X0.30920 Y1.07400
X0.30920 Y1.07500
X0.30720 Y1.07500
X0.30720 Y1.07600
X0.30620 Y1.07600
X0.30620 Y1.07700
X0.30420 Y1.07700
X0.30420 Y1.07800
X0.30220 Y1.07800
X0.30220 Y1.07900
X0.30120 Y1.07900
X0.30120 Y1.08000
X0.29920 Y1.08000
X0.29920 Y1.08100
X0.29720 Y1.08100
X0.29720 Y1.08200
X0.29320 Y1.08200
X0.29320 Y1.08300
X0.28720 Y1.08300
X0.28720 Y1.08400
X0.24620 Y1.08400
X0.24620 Y1.08300
X0.24020 Y1.08300
X0.24020 Y1.08200
X0.23620 Y1.08200
X0.23620 Y1.08100
X0.23420 Y1.08100
X0.23420 Y1.08000
X0.23220 Y1.08000
X0.23220 Y1.07900
X0.23120 Y1.07900
X0.23120 Y1.07800
X0.22920 Y1.07800
X0.22920 Y1.07700
X0.22720 Y1.07700
X0.22720 Y1.07600
X0.22620 Y1.07600
X0.22620 Y1.07500
X0.22420 Y1.07500
X0.22420 Y1.07400
X0.22320 Y1.07400
X0.22320 Y1.07300
X0.22220 Y1.07300
X0.22220 Y1.07200
X0.22120 Y1.07200
X0.22120 Y1.07100
X0.22020 Y1.07100
X0.22020 Y1.07000
X0.21920 Y1.07000
X0.21920 Y1.06800
G04 P0 ( dwell for no time -- G64 should not smooth over this point )
G00 Z0.11811 ( retract )

G00 X1.77120 Y1.06600 ( rapid move to begin. )
G01 Z0.00000 F7.87402 ( plunge. )
G04 P0 ( dwell for no time -- G64 should not smooth over this point )
X1.77120 Y1.06600
X1.77020 Y1.06600
X1.77020 Y1.06500
X1.76920 Y1.06500
X1.76920 Y1.06300
X1.76820 Y1.06300
X1.76820 Y1.06100
X1.76720 Y1.06100
X1.76720 Y1.05800
X1.76620 Y1.05800
X1.76620 Y1.05500
X1.76520 Y1.05500
X1.76520 Y1.05200
X1.76420 Y1.05200
X1.76420 Y1.00300
X1.76520 Y1.00300
X1.76520 Y1.00000
X1.76620 Y1.00000
X1.76620 Y0.99700
X1.76720 Y0.99700
X1.76720 Y0.99400
X1.76820 Y0.99400
X1.76820 Y0.99200
X1.76920 Y0.99200
X1.76920 Y0.99100
X1.77020 Y0.99100
X1.77020 Y0.98900
X1.77120 Y0.98900
X1.77120 Y0.98700
X1.77220 Y0.98700
X1.77220 Y0.98600
X1.77320 Y0.98600
X1.77320 Y0.98500
X1.77420 Y0.98500
X1.77420 Y0.98400
X1.77520 Y0.98400
X1.77520 Y0.98300
X1.77620 Y0.98300
X1.77620 Y0.98200
X1.77820 Y0.98200
X1.77820 Y0.98100
X1.77920 Y0.98100
X1.77920 Y0.98000
X1.78120 Y0.98000
X1.78120 Y0.97900
X1.78320 Y0.97900
X1.78320 Y0.97800
X1.78420 Y0.97800
X1.78420 Y0.97700
X1.78620 Y0.97700
X1.78620 Y0.97600
X1.78820 Y0.97600
X1.78820 Y0.97500
X1.79220 Y0.97500
X1.79220 Y0.97400
X1.79820 Y0.97400
X1.79820 Y0.97300
X1.83920 Y0.97300
X1.83920 Y0.97400
X1.84520 Y0.97400
X1.84520 Y0.97500
X1.84920 Y0.97500
X1.84920 Y0.97600
X1.85120 Y0.97600
X1.85120 Y0.97700
X1.85320 Y0.97700
X1.85320 Y0.97800
X1.85420 Y0.97800
X1.85420 Y0.97900
X1.85620 Y0.97900
X1.85620 Y0.98000
X1.85820 Y0.98000
X1.85820 Y0.98100
X1.85920 Y0.98100
X1.85920 Y0.98200
X1.86120 Y0.98200
X1.86120 Y0.98300
X1.86220 Y0.98300
X1.86220 Y0.98400
X1.86320 Y0.98400
X1.86320 Y0.98500
X1.86420 Y0.98500
X1.86420 Y0.98600
X1.86520 Y0.98600
X1.86520 Y0.98700
X1.86620 Y0.98700
X1.86620 Y0.98900
X1.86720 Y0.98900
X1.86720 Y0.99000
X1.86820 Y0.99000
X1.86820 Y0.99200
X1.86920 Y0.99200
X1.86920 Y0.99400
X1.87020 Y0.99400
X1.87020 Y0.99600
X1.87120 Y0.99600
X1.87120 Y1.00000
X1.87220 Y1.00000
X1.87220 Y1.00300
X1.87320 Y1.00300
X1.87320 Y1.05200
X1.87220 Y1.05200
X1.87220 Y1.05500
X1.87120 Y1.05500
X1.87120 Y1.05900
X1.87020 Y1.05900
X1.87020 Y1.06100
X1.86920 Y1.06100
X1.86920 Y1.06300
X1.86820 Y1.06300
X1.86820 Y1.06500
X1.86720 Y1.06500
X1.86720 Y1.06600
X1.86620 Y1.06600
X1.86620 Y1.06800
X1.86520 Y1.06800
X1.86520 Y1.06900
X1.86420 Y1.06900
X1.86420 Y1.07000
X1.86320 Y1.07000
X1.86320 Y1.07100
X1.86220 Y1.07100
X1.86220 Y1.07200
X1.86120 Y1.07200
X1.86120 Y1.07300
X1.85920 Y1.07300
X1.85920 Y1.07400
X1.85820 Y1.07400
X1.85820 Y1.07500
X1.85620 Y1.07500
X1.85620 Y1.07600
X1.85420 Y1.07600
X1.85420 Y1.07700
X1.85320 Y1.07700
X1.85320 Y1.07800
X1.85120 Y1.07800
X1.85120 Y1.07900
X1.84920 Y1.07900
X1.84920 Y1.08000
X1.84520 Y1.08000
X1.84520 Y1.08100
X1.83920 Y1.08100
X1.83920 Y1.08200
X1.79820 Y1.08200
X1.79820 Y1.08100
X1.79220 Y1.08100
X1.79220 Y1.08000
X1.78820 Y1.08000
X1.78820 Y1.07900
X1.78620 Y1.07900
X1.78620 Y1.07800
X1.78420 Y1.07800
X1.78420 Y1.07700
X1.78320 Y1.07700
X1.78320 Y1.07600
X1.78120 Y1.07600
X1.78120 Y1.07500
X1.77920 Y1.07500
X1.77920 Y1.07400
X1.77820 Y1.07400
X1.77820 Y1.07300
X1.77620 Y1.07300
X1.77620 Y1.07200
X1.77520 Y1.07200
X1.77520 Y1.07100
X1.77420 Y1.07100
X1.77420 Y1.07000
X1.77320 Y1.07000
X1.77320 Y1.06900
X1.77220 Y1.06900
X1.77220 Y1.06800
X1.77120 Y1.06800
X1.77120 Y1.06600
G04 P0 ( dwell for no time -- G64 should not smooth over this point )
G00 Z0.11811 ( retract )

G00 X0.74320 Y1.01800 ( rapid move to begin. )
G01 Z0.00000 F7.87402 ( plunge. )
G04 P0 ( dwell for no time -- G64 should not smooth over this point )
X0.74320 Y1.01800
X0.74320 Y1.01600
X0.74220 Y1.01600
X0.74220 Y0.98100
X0.74320 Y0.98100
X0.74320 Y0.97600
X0.74320 Y0.97600
X0.74320 Y0.97200
X0.74220 Y0.97200
X0.74220 Y0.96900
X0.74120 Y0.96900
X0.74120 Y0.96500
X0.74020 Y0.96500
X0.74020 Y0.96100
X0.73920 Y0.96100
X0.73920 Y0.95800
X0.73820 Y0.95800
X0.73820 Y0.95400
X0.73720 Y0.95400
X0.73720 Y0.95000
X0.73620 Y0.95000
X0.73620 Y0.94700
X0.73520 Y0.94700
X0.73520 Y0.94300
X0.73420 Y0.94300
X0.73420 Y0.93900
X0.73320 Y0.93900
X0.73320 Y0.93500
X0.73220 Y0.93500
X0.73220 Y0.93200
X0.73120 Y0.93200
X0.73120 Y0.92800
X0.73020 Y0.92800
X0.73020 Y0.92400
X0.72920 Y0.92400
X0.72920 Y0.92100
X0.72820 Y0.92100
X0.72820 Y0.91700
X0.72720 Y0.91700
X0.72720 Y0.91300
X0.72620 Y0.91300
X0.72620 Y0.91000
X0.72520 Y0.91000
X0.72520 Y0.90600
X0.72420 Y0.90600
X0.72420 Y0.90200
X0.72320 Y0.90200
X0.72320 Y0.89800
X0.72220 Y0.89800
X0.72220 Y0.89500
X0.72120 Y0.89500
X0.72120 Y0.89100
X0.72020 Y0.89100
X0.72020 Y0.88700
X0.71920 Y0.88700
X0.71920 Y0.88400
X0.71820 Y0.88400
X0.71820 Y0.88000
X0.71720 Y0.88000
X0.71720 Y0.87600
X0.71620 Y0.87600
X0.71620 Y0.87300
X0.71520 Y0.87300
X0.71520 Y0.86900
X0.71420 Y0.86900
X0.71420 Y0.86500
X0.71320 Y0.86500
X0.71320 Y0.86100
X0.71220 Y0.86100
X0.71220 Y0.85800
X0.71120 Y0.85800
X0.71120 Y0.85400
X0.71020 Y0.85400
X0.71020 Y0.85000
X0.70920 Y0.85000
X0.70920 Y0.84700
X0.70820 Y0.84700
X0.70820 Y0.84300
X0.70720 Y0.84300
X0.70720 Y0.83900
X0.70620 Y0.83900
X0.70620 Y0.83600
X0.70520 Y0.83600
X0.70520 Y0.83200
X0.70420 Y0.83200
X0.70420 Y0.82800
X0.70320 Y0.82800
X0.70320 Y0.82400
X0.70220 Y0.82400
X0.70220 Y0.82100
X0.70120 Y0.82100
X0.70120 Y0.81700
X0.70020 Y0.81700
X0.70020 Y0.81300
X0.69920 Y0.81300
X0.69920 Y0.81000
X0.69820 Y0.81000
X0.69820 Y0.80600
X0.69720 Y0.80600
X0.69720 Y0.80200
X0.69620 Y0.80200
X0.69620 Y0.79900
X0.69520 Y0.79900
X0.69520 Y0.79500
X0.69420 Y0.79500
X0.69420 Y0.79100
X0.69320 Y0.79100
X0.69320 Y0.78700
X0.69220 Y0.78700
X0.69220 Y0.78400
X0.69120 Y0.78400
X0.69120 Y0.78000
X0.69020 Y0.78000
X0.69020 Y0.77600
X0.68920 Y0.77600
X0.68920 Y0.77300
X0.68820 Y0.77300
X0.68820 Y0.76900
X0.68720 Y0.76900
X0.68720 Y0.76500
X0.68620 Y0.76500
X0.68620 Y0.76200
X0.68520 Y0.76200
X0.68520 Y0.75800
X0.68420 Y0.75800
X0.68420 Y0.75400
X0.68320 Y0.75400
X0.68320 Y0.75000
X0.68220 Y0.75000
X0.68220 Y0.74700
X0.68120 Y0.74700
X0.68120 Y0.74300
X0.68020 Y0.74300
X0.68020 Y0.73900
X0.67920 Y0.73900
X0.67920 Y0.73600
X0.67820 Y0.73600
X0.67820 Y0.73200
X0.67720 Y0.73200
X0.67720 Y0.72800
X0.67620 Y0.72800
X0.67620 Y0.72500
X0.67520 Y0.72500
X0.67520 Y0.72100
X0.67420 Y0.72100
X0.67420 Y0.71700
X0.67320 Y0.71700
X0.67320 Y0.71300
X0.67220 Y0.71300
X0.67220 Y0.71000
X0.67120 Y0.71000
X0.67120 Y0.70600
X0.67020 Y0.70600
X0.67020 Y0.70200
X0.66920 Y0.70200
X0.66920 Y0.69900
X0.66820 Y0.69900
X0.66820 Y0.69500
X0.66720 Y0.69500
X0.66720 Y0.69100
X0.66620 Y0.69100
X0.66620 Y0.68800
X0.66520 Y0.68800
X0.66520 Y0.68400
X0.66420 Y0.68400
X0.66420 Y0.68000
X0.66320 Y0.68000
X0.66320 Y0.67600
X0.66220 Y0.67600
X0.66220 Y0.67300
X0.66120 Y0.67300
X0.66120 Y0.66900
X0.66020 Y0.66900
X0.66020 Y0.66500
X0.65920 Y0.66500
X0.65920 Y0.66200
X0.65820 Y0.66200
X0.65820 Y0.65800
X0.65720 Y0.65800
X0.65720 Y0.65400
X0.65620 Y0.65400
X0.65620 Y0.65100
X0.65520 Y0.65100
X0.65520 Y0.64700
X0.65420 Y0.64700
X0.65420 Y0.64300
X0.65320 Y0.64300
X0.65320 Y0.63900
X0.65220 Y0.63900
X0.65220 Y0.63600
X0.65120 Y0.63600
X0.65120 Y0.63200
X0.65020 Y0.63200
X0.65020 Y0.62800
X0.64920 Y0.62800
X0.64920 Y0.62500
X0.64820 Y0.62500
X0.64820 Y0.62100
X0.64720 Y0.62100
X0.64720 Y0.61700
X0.64620 Y0.61700
X0.64620 Y0.61400
X0.64520 Y0.61400
X0.64520 Y0.61000
X0.64420 Y0.61000
X0.64420 Y0.60600
X0.64320 Y0.60600
X0.64320 Y0.60200
X0.64220 Y0.60200
X0.64220 Y0.59900
X0.64120 Y0.59900
X0.64120 Y0.59500
X0.64020 Y0.59500
X0.64020 Y0.59100
X0.63920 Y0.59100
X0.63920 Y0.58800
X0.63820 Y0.58800
X0.63820 Y0.58400
X0.63720 Y0.58400
X0.63720 Y0.58000
X0.63620 Y0.58000
X0.63620 Y0.57700
X0.63520 Y0.57700
X0.63520 Y0.57300
X0.63420 Y0.57300
X0.63420 Y0.56900
X0.63320 Y0.56900
X0.63320 Y0.56500
X0.63220 Y0.56500
X0.63220 Y0.56200
X0.63120 Y0.56200
X0.63120 Y0.55800
X0.63020 Y0.55800
X0.63020 Y0.55400
X0.62920 Y0.55400
X0.62920 Y0.55100
X0.62820 Y0.55100
X0.62820 Y0.54700
X0.62720 Y0.54700
X0.62720 Y0.54300
X0.62620 Y0.54300
X0.62620 Y0.54000
X0.62520 Y0.54000
X0.62520 Y0.53600
X0.62420 Y0.53600
X0.62420 Y0.53200
X0.62320 Y0.53200
X0.62320 Y0.52800
X0.62220 Y0.52800
X0.62220 Y0.52500
X0.62120 Y0.52500
X0.62120 Y0.52100
X0.62020 Y0.52100
X0.62020 Y0.51700
X0.61920 Y0.51700
X0.61920 Y0.51400
X0.61820 Y0.51400
X0.61820 Y0.51000
X0.61720 Y0.51000
X0.61720 Y0.50600
X0.61620 Y0.50600
X0.61620 Y0.50300
X0.61520 Y0.50300
X0.61520 Y0.49900
X0.61420 Y0.49900
X0.61420 Y0.49500
X0.61320 Y0.49500
X0.61320 Y0.49100
X0.61220 Y0.49100
X0.61220 Y0.48800
X0.61120 Y0.48800
X0.61120 Y0.48400
X0.61020 Y0.48400
X0.61020 Y0.48000
X0.60920 Y0.48000
X0.60920 Y0.47700
X0.60820 Y0.47700
X0.60820 Y0.47300
X0.60720 Y0.47300
X0.60720 Y0.46900
X0.60620 Y0.46900
X0.60620 Y0.46600
X0.60520 Y0.46600
X0.60520 Y0.46200
X0.60420 Y0.46200
X0.60420 Y0.45800
X0.60320 Y0.45800
X0.60320 Y0.45400
X0.60220 Y0.45400
X0.60220 Y0.45100
X0.60120 Y0.45100
X0.60120 Y0.44700
X0.60020 Y0.44700
X0.60020 Y0.44300
X0.59920 Y0.44300
X0.59920 Y0.44000
X0.59820 Y0.44000
X0.59820 Y0.43600
X0.59720 Y0.43600
X0.59720 Y0.43200
X0.59620 Y0.43200
X0.59620 Y0.42900
X0.59520 Y0.42900
X0.59520 Y0.42500
X0.59420 Y0.42500
X0.59420 Y0.42100
X0.59320 Y0.42100
X0.59320 Y0.41700
X0.59220 Y0.41700
X0.59220 Y0.41400
X0.59120 Y0.41400
X0.59120 Y0.41000
X0.59020 Y0.41000
X0.59020 Y0.40600
X0.58920 Y0.40600
X0.58920 Y0.40300
X0.58820 Y0.40300
X0.58820 Y0.39900
X0.58720 Y0.39900
X0.58720 Y0.39500
X0.58620 Y0.39500
X0.58620 Y0.39200
X0.58520 Y0.39200
X0.58520 Y0.38800
X0.58420 Y0.38800
X0.58420 Y0.38400
X0.58320 Y0.38400
X0.58320 Y0.38000
X0.58220 Y0.38000
X0.58220 Y0.37700
X0.58120 Y0.37700
X0.58120 Y0.37300
X0.58020 Y0.37300
X0.58020 Y0.36900
X0.57920 Y0.36900
X0.57920 Y0.36600
X0.57820 Y0.36600
X0.57820 Y0.36200
X0.57720 Y0.36200
X0.57720 Y0.35800
X0.57620 Y0.35800
X0.57620 Y0.35500
X0.57520 Y0.35500
X0.57520 Y0.35100
X0.57420 Y0.35100
X0.57420 Y0.34700
X0.57320 Y0.34700
X0.57320 Y0.34300
X0.57220 Y0.34300
X0.57220 Y0.34000
X0.57120 Y0.34000
X0.57120 Y0.33600
X0.57020 Y0.33600
X0.57020 Y0.33200
X0.56920 Y0.33200
X0.56920 Y0.32900
X0.56820 Y0.32900
X0.56820 Y0.32500
X0.56720 Y0.32500
X0.56720 Y0.32100
X0.56620 Y0.32100
X0.56620 Y0.31800
X0.56520 Y0.31800
X0.56520 Y0.31400
X0.56420 Y0.31400
X0.56420 Y0.31000
X0.56320 Y0.31000
X0.56320 Y0.30600
X0.56220 Y0.30600
X0.56220 Y0.30300
X0.56120 Y0.30300
X0.56120 Y0.29900
X0.56020 Y0.29900
X0.56020 Y0.29500
X0.55920 Y0.29500
X0.55920 Y0.29300
X0.55520 Y0.29300
X0.55520 Y0.29200
X0.55320 Y0.29200
X0.55320 Y0.29100
X0.55120 Y0.29100
X0.55120 Y0.29000
X0.55020 Y0.29000
X0.55020 Y0.28900
X0.54820 Y0.28900
X0.54820 Y0.28800
X0.54720 Y0.28800
X0.54720 Y0.28600
X0.54620 Y0.28600
X0.54620 Y0.28500
X0.54520 Y0.28500
X0.54520 Y0.28300
X0.54420 Y0.28300
X0.54420 Y0.28100
X0.54320 Y0.28100
X0.54320 Y0.27600
X0.54220 Y0.27600
X0.54220 Y0.24100
X0.54320 Y0.24100
X0.54320 Y0.23600
X0.54420 Y0.23600
X0.54420 Y0.23400
X0.54520 Y0.23400
X0.54520 Y0.23200
X0.54620 Y0.23200
X0.54620 Y0.23100
X0.54720 Y0.23100
X0.54720 Y0.22900
X0.54820 Y0.22900
X0.54820 Y0.22800
X0.55020 Y0.22800
X0.55020 Y0.22700
X0.55120 Y0.22700
X0.55120 Y0.22600
X0.55320 Y0.22600
X0.55320 Y0.22500
X0.55520 Y0.22500
X0.55520 Y0.22400
X0.56020 Y0.22400
X0.56020 Y0.22300
X0.59520 Y0.22300
X0.59520 Y0.22400
X0.60020 Y0.22400
X0.60020 Y0.22500
X0.60220 Y0.22500
X0.60220 Y0.22600
X0.60420 Y0.22600
X0.60420 Y0.22700
X0.60620 Y0.22700
X0.60620 Y0.22800
X0.60720 Y0.22800
X0.60720 Y0.22900
X0.60820 Y0.22900
X0.60820 Y0.23100
X0.60920 Y0.23100
X0.60920 Y0.23200
X0.61020 Y0.23200
X0.61020 Y0.23400
X0.61120 Y0.23400
X0.61120 Y0.23600
X0.61220 Y0.23600
X0.61220 Y0.24100
X0.61320 Y0.24100
X0.61320 Y0.27600
X0.61220 Y0.27600
X0.61220 Y0.28100
X0.61220 Y0.28100
X0.61220 Y0.28400
X0.61320 Y0.28400
X0.61320 Y0.28800
X0.61420 Y0.28800
X0.61420 Y0.29200
X0.61520 Y0.29200
X0.61520 Y0.29600
X0.61620 Y0.29600
X0.61620 Y0.29900
X0.61720 Y0.29900
X0.61720 Y0.30300
X0.61820 Y0.30300
X0.61820 Y0.30700
X0.61920 Y0.30700
X0.61920 Y0.31000
X0.62020 Y0.31000
X0.62020 Y0.31400
X0.62120 Y0.31400
X0.62120 Y0.31800
X0.62220 Y0.31800
X0.62220 Y0.32100
X0.62320 Y0.32100
X0.62320 Y0.32500
X0.62420 Y0.32500
X0.62420 Y0.32900
X0.62520 Y0.32900
X0.62520 Y0.33300
X0.62620 Y0.33300
X0.62620 Y0.33600
X0.62720 Y0.33600
X0.62720 Y0.34000
X0.62820 Y0.34000
X0.62820 Y0.34400
X0.62920 Y0.34400
X0.62920 Y0.34700
X0.63020 Y0.34700
X0.63020 Y0.35100
X0.63120 Y0.35100
X0.63120 Y0.35500
X0.63220 Y0.35500
X0.63220 Y0.35800
X0.63320 Y0.35800
X0.63320 Y0.36200
X0.63420 Y0.36200
X0.63420 Y0.36600
X0.63520 Y0.36600
X0.63520 Y0.37000
X0.63620 Y0.37000
X0.63620 Y0.37300
X0.63720 Y0.37300
X0.63720 Y0.37700
X0.63820 Y0.37700
X0.63820 Y0.38100
X0.63920 Y0.38100
X0.63920 Y0.38400
X0.64020 Y0.38400
X0.64020 Y0.38800
X0.64120 Y0.38800
X0.64120 Y0.39200
X0.64220 Y0.39200
X0.64220 Y0.39500
X0.64320 Y0.39500
X0.64320 Y0.39900
X0.64420 Y0.39900
X0.64420 Y0.40300
X0.64520 Y0.40300
X0.64520 Y0.40700
X0.64620 Y0.40700
X0.64620 Y0.41000
X0.64720 Y0.41000
X0.64720 Y0.41400
X0.64820 Y0.41400
X0.64820 Y0.41800
X0.64920 Y0.41800
X0.64920 Y0.42100
X0.65020 Y0.42100
X0.65020 Y0.42500
X0.65120 Y0.42500
X0.65120 Y0.42900
X0.65220 Y0.42900
X0.65220 Y0.43200
X0.65320 Y0.43200
X0.65320 Y0.43600
X0.65420 Y0.43600
X0.65420 Y0.44000
X0.65520 Y0.44000
X0.65520 Y0.44400
X0.65620 Y0.44400
X0.65620 Y0.44700
X0.65720 Y0.44700
X0.65720 Y0.45100
X0.65820 Y0.45100
X0.65820 Y0.45500
X0.65920 Y0.45500
X0.65920 Y0.45800
X0.66020 Y0.45800
X0.66020 Y0.46200
X0.66120 Y0.46200
X0.66120 Y0.46600
X0.66220 Y0.46600
X0.66220 Y0.46900
X0.66320 Y0.46900
X0.66320 Y0.47300
X0.66420 Y0.47300
X0.66420 Y0.47700
X0.66520 Y0.47700
X0.66520 Y0.48100
X0.66620 Y0.48100
X0.66620 Y0.48400
X0.66720 Y0.48400
X0.66720 Y0.48800
X0.66820 Y0.48800
X0.66820 Y0.49200
X0.66920 Y0.49200
X0.66920 Y0.49500
X0.67020 Y0.49500
X0.67020 Y0.49900
X0.67120 Y0.49900
X0.67120 Y0.50300
X0.67220 Y0.50300
X0.67220 Y0.50600
X0.67320 Y0.50600
X0.67320 Y0.51000
X0.67420 Y0.51000
X0.67420 Y0.51400
X0.67520 Y0.51400
X0.67520 Y0.51800
X0.67620 Y0.51800
X0.67620 Y0.52100
X0.67720 Y0.52100
X0.67720 Y0.52500
X0.67820 Y0.52500
X0.67820 Y0.52900
X0.67920 Y0.52900
X0.67920 Y0.53200
X0.68020 Y0.53200
X0.68020 Y0.53600
X0.68120 Y0.53600
X0.68120 Y0.54000
X0.68220 Y0.54000
X0.68220 Y0.54300
X0.68320 Y0.54300
X0.68320 Y0.54700
X0.68420 Y0.54700
X0.68420 Y0.55100
X0.68520 Y0.55100
X0.68520 Y0.55500
X0.68620 Y0.55500
X0.68620 Y0.55800
X0.68720 Y0.55800
X0.68720 Y0.56200
X0.68820 Y0.56200
X0.68820 Y0.56600
X0.68920 Y0.56600
X0.68920 Y0.56900
X0.69020 Y0.56900
X0.69020 Y0.57300
X0.69120 Y0.57300
X0.69120 Y0.57700
X0.69220 Y0.57700
X0.69220 Y0.58000
X0.69320 Y0.58000
X0.69320 Y0.58400
X0.69420 Y0.58400
X0.69420 Y0.58800
X0.69520 Y0.58800
X0.69520 Y0.59200
X0.69620 Y0.59200
X0.69620 Y0.59500
X0.69720 Y0.59500
X0.69720 Y0.59900
X0.69820 Y0.59900
X0.69820 Y0.60300
X0.69920 Y0.60300
X0.69920 Y0.60600
X0.70020 Y0.60600
X0.70020 Y0.61000
X0.70120 Y0.61000
X0.70120 Y0.61400
X0.70220 Y0.61400
X0.70220 Y0.61700
X0.70320 Y0.61700
X0.70320 Y0.62100
X0.70420 Y0.62100
X0.70420 Y0.62500
X0.70520 Y0.62500
X0.70520 Y0.62900
X0.70620 Y0.62900
X0.70620 Y0.63200
X0.70720 Y0.63200
X0.70720 Y0.63600
X0.70820 Y0.63600
X0.70820 Y0.64000
X0.70920 Y0.64000
X0.70920 Y0.64300
X0.71020 Y0.64300
X0.71020 Y0.64700
X0.71120 Y0.64700
X0.71120 Y0.65100
X0.71220 Y0.65100
X0.71220 Y0.65400
X0.71320 Y0.65400
X0.71320 Y0.65800
X0.71420 Y0.65800
X0.71420 Y0.66200
X0.71520 Y0.66200
X0.71520 Y0.66600
X0.71620 Y0.66600
X0.71620 Y0.66900
X0.71720 Y0.66900
X0.71720 Y0.67300
X0.71820 Y0.67300
X0.71820 Y0.67700
X0.71920 Y0.67700
X0.71920 Y0.68000
X0.72020 Y0.68000
X0.72020 Y0.68400
X0.72120 Y0.68400
X0.72120 Y0.68800
X0.72220 Y0.68800
X0.72220 Y0.69100
X0.72320 Y0.69100
X0.72320 Y0.69500
X0.72420 Y0.69500
X0.72420 Y0.69900
X0.72520 Y0.69900
X0.72520 Y0.70300
X0.72620 Y0.70300
X0.72620 Y0.70600
X0.72720 Y0.70600
X0.72720 Y0.71000
X0.72820 Y0.71000
X0.72820 Y0.71400
X0.72920 Y0.71400
X0.72920 Y0.71700
X0.73020 Y0.71700
X0.73020 Y0.72100
X0.73120 Y0.72100
X0.73120 Y0.72500
X0.73220 Y0.72500
X0.73220 Y0.72800
X0.73320 Y0.72800
X0.73320 Y0.73200
X0.73420 Y0.73200
X0.73420 Y0.73600
X0.73520 Y0.73600
X0.73520 Y0.74000
X0.73620 Y0.74000
X0.73620 Y0.74300
X0.73720 Y0.74300
X0.73720 Y0.74700
X0.73820 Y0.74700
X0.73820 Y0.75100
X0.73920 Y0.75100
X0.73920 Y0.75400
X0.74020 Y0.75400
X0.74020 Y0.75800
X0.74120 Y0.75800
X0.74120 Y0.76200
X0.74220 Y0.76200
X0.74220 Y0.76500
X0.74320 Y0.76500
X0.74320 Y0.76900
X0.74420 Y0.76900
X0.74420 Y0.77300
X0.74520 Y0.77300
X0.74520 Y0.77700
X0.74620 Y0.77700
X0.74620 Y0.78000
X0.74720 Y0.78000
X0.74720 Y0.78400
X0.74820 Y0.78400
X0.74820 Y0.78800
X0.74920 Y0.78800
X0.74920 Y0.79100
X0.75020 Y0.79100
X0.75020 Y0.79500
X0.75120 Y0.79500
X0.75120 Y0.79900
X0.75220 Y0.79900
X0.75220 Y0.80200
X0.75320 Y0.80200
X0.75320 Y0.80600
X0.75420 Y0.80600
X0.75420 Y0.81000
X0.75520 Y0.81000
X0.75520 Y0.81400
X0.75620 Y0.81400
X0.75620 Y0.81700
X0.75720 Y0.81700
X0.75720 Y0.82100
X0.75820 Y0.82100
X0.75820 Y0.82500
X0.75920 Y0.82500
X0.75920 Y0.82800
X0.76020 Y0.82800
X0.76020 Y0.83200
X0.76120 Y0.83200
X0.76120 Y0.83600
X0.76220 Y0.83600
X0.76220 Y0.83900
X0.76320 Y0.83900
X0.76320 Y0.84300
X0.76420 Y0.84300
X0.76420 Y0.84700
X0.76520 Y0.84700
X0.76520 Y0.85100
X0.76620 Y0.85100
X0.76620 Y0.85400
X0.76720 Y0.85400
X0.76720 Y0.85800
X0.76820 Y0.85800
X0.76820 Y0.86200
X0.76920 Y0.86200
X0.76920 Y0.86500
X0.77020 Y0.86500
X0.77020 Y0.86900
X0.77120 Y0.86900
X0.77120 Y0.87300
X0.77220 Y0.87300
X0.77220 Y0.87600
X0.77320 Y0.87600
X0.77320 Y0.88000
X0.77420 Y0.88000
X0.77420 Y0.88400
X0.77520 Y0.88400
X0.77520 Y0.88800
X0.77620 Y0.88800
X0.77620 Y0.89100
X0.77720 Y0.89100
X0.77720 Y0.89500
X0.77820 Y0.89500
X0.77820 Y0.89900
X0.77920 Y0.89900
X0.77920 Y0.90200
X0.78020 Y0.90200
X0.78020 Y0.90600
X0.78120 Y0.90600
X0.78120 Y0.91000
X0.78220 Y0.91000
X0.78220 Y0.91300
X0.78320 Y0.91300
X0.78320 Y0.91700
X0.78420 Y0.91700
X0.78420 Y0.92100
X0.78520 Y0.92100
X0.78520 Y0.92500
X0.78620 Y0.92500
X0.78620 Y0.92800
X0.78720 Y0.92800
X0.78720 Y0.93200
X0.78820 Y0.93200
X0.78820 Y0.93600
X0.78920 Y0.93600
X0.78920 Y0.93900
X0.79020 Y0.93900
X0.79020 Y0.94300
X0.79120 Y0.94300
X0.79120 Y0.94700
X0.79220 Y0.94700
X0.79220 Y0.95000
X0.79320 Y0.95000
X0.79320 Y0.95400
X0.79420 Y0.95400
X0.79420 Y0.95800
X0.79520 Y0.95800
X0.79520 Y0.96200
X0.79620 Y0.96200
X0.79620 Y0.96400
X0.80020 Y0.96400
X0.80020 Y0.96500
X0.80220 Y0.96500
X0.80220 Y0.96600
X0.80420 Y0.96600
X0.80420 Y0.96700
X0.80620 Y0.96700
X0.80620 Y0.96800
X0.80720 Y0.96800
X0.80720 Y0.96900
X0.80820 Y0.96900
X0.80820 Y0.97100
X0.80920 Y0.97100
X0.80920 Y0.97200
X0.81020 Y0.97200
X0.81020 Y0.97400
X0.81120 Y0.97400
X0.81120 Y0.97600
X0.81220 Y0.97600
X0.81220 Y0.98100
X0.81320 Y0.98100
X0.81320 Y1.01600
X0.81220 Y1.01600
X0.81220 Y1.02100
X0.81120 Y1.02100
X0.81120 Y1.02300
X0.81020 Y1.02300
X0.81020 Y1.02500
X0.80920 Y1.02500
X0.80920 Y1.02600
X0.80820 Y1.02600
X0.80820 Y1.02800
X0.80720 Y1.02800
X0.80720 Y1.02900
X0.80620 Y1.02900
X0.80620 Y1.03000
X0.80420 Y1.03000
X0.80420 Y1.03100
X0.80220 Y1.03100
X0.80220 Y1.03200
X0.80020 Y1.03200
X0.80020 Y1.03300
X0.79520 Y1.03300
X0.79520 Y1.03400
X0.76020 Y1.03400
X0.76020 Y1.03300
X0.75520 Y1.03300
X0.75520 Y1.03200
X0.75320 Y1.03200
X0.75320 Y1.03100
X0.75120 Y1.03100
X0.75120 Y1.03000
X0.75020 Y1.03000
X0.75020 Y1.02900
X0.74820 Y1.02900
X0.74820 Y1.02800
X0.74720 Y1.02800
X0.74720 Y1.02600
X0.74620 Y1.02600
X0.74620 Y1.02500
X0.74520 Y1.02500
X0.74520 Y1.02300
X0.74420 Y1.02300
X0.74420 Y1.02100
X0.74320 Y1.02100
X0.74320 Y1.01800
G04 P0 ( dwell for no time -- G64 should not smooth over this point )
G00 Z0.11811 ( retract )

G00 X1.12420 Y0.93800 ( rapid move to begin. )
G01 Z0.00000 F7.87402 ( plunge. )
G04 P0 ( dwell for no time -- G64 should not smooth over this point )
X1.12420 Y0.93800
X1.12320 Y0.93800
X1.12320 Y0.93700
X1.12220 Y0.93700
X1.12220 Y0.88000
X1.12320 Y0.88000
X1.12320 Y0.87900
X1.12420 Y0.87900
X1.12420 Y0.87800
X1.12520 Y0.87800
X1.12520 Y0.87700
X1.12620 Y0.87700
X1.12620 Y0.87600
X1.12720 Y0.87600
X1.12720 Y0.87500
X1.12820 Y0.87500
X1.12820 Y0.87400
X1.12920 Y0.87400
X1.12920 Y0.87300
X1.13020 Y0.87300
X1.13020 Y0.87200
X1.13120 Y0.87200
X1.13120 Y0.87100
X1.13220 Y0.87100
X1.13220 Y0.87000
X1.13320 Y0.87000
X1.13320 Y0.86900
X1.13420 Y0.86900
X1.13420 Y0.86800
X1.13520 Y0.86800
X1.13520 Y0.86700
X1.13620 Y0.86700
X1.13620 Y0.86600
X1.13720 Y0.86600
X1.13720 Y0.86500
X1.13820 Y0.86500
X1.13820 Y0.86400
X1.13920 Y0.86400
X1.13920 Y0.86300
X1.19620 Y0.86300
X1.19620 Y0.86400
X1.19720 Y0.86400
X1.19720 Y0.86500
X1.19820 Y0.86500
X1.19820 Y0.86600
X1.19920 Y0.86600
X1.19920 Y0.86700
X1.20020 Y0.86700
X1.20020 Y0.86800
X1.20120 Y0.86800
X1.20120 Y0.86900
X1.20220 Y0.86900
X1.20220 Y0.87000
X1.20320 Y0.87000
X1.20320 Y0.87100
X1.20420 Y0.87100
X1.20420 Y0.87200
X1.20520 Y0.87200
X1.20520 Y0.87300
X1.20620 Y0.87300
X1.20620 Y0.87400
X1.20720 Y0.87400
X1.20720 Y0.87500
X1.20820 Y0.87500
X1.20820 Y0.87600
X1.20920 Y0.87600
X1.20920 Y0.87700
X1.21020 Y0.87700
X1.21020 Y0.87800
X1.21120 Y0.87800
X1.21120 Y0.87900
X1.21220 Y0.87900
X1.21220 Y0.88000
X1.21320 Y0.88000
X1.21320 Y0.93700
X1.21220 Y0.93700
X1.21220 Y0.93800
X1.21120 Y0.93800
X1.21120 Y0.93900
X1.21020 Y0.93900
X1.21020 Y0.94000
X1.20920 Y0.94000
X1.20920 Y0.94100
X1.20820 Y0.94100
X1.20820 Y0.94200
X1.20720 Y0.94200
X1.20720 Y0.94300
X1.20620 Y0.94300
X1.20620 Y0.94400
X1.20520 Y0.94400
X1.20520 Y0.94500
X1.20420 Y0.94500
X1.20420 Y0.94600
X1.20320 Y0.94600
X1.20320 Y0.94700
X1.20220 Y0.94700
X1.20220 Y0.94800
X1.20120 Y0.94800
X1.20120 Y0.94900
X1.20020 Y0.94900
X1.20020 Y0.95000
X1.19920 Y0.95000
X1.19920 Y0.95100
X1.19820 Y0.95100
X1.19820 Y0.95200
X1.19720 Y0.95200
X1.19720 Y0.95300
X1.19620 Y0.95300
X1.19620 Y0.95400
X1.13920 Y0.95400
X1.13920 Y0.95300
X1.13820 Y0.95300
X1.13820 Y0.95200
X1.13720 Y0.95200
X1.13720 Y0.95100
X1.13620 Y0.95100
X1.13620 Y0.95000
X1.13520 Y0.95000
X1.13520 Y0.94900
X1.13420 Y0.94900
X1.13420 Y0.94800
X1.13320 Y0.94800
X1.13320 Y0.94700
X1.13220 Y0.94700
X1.13220 Y0.94600
X1.13120 Y0.94600
X1.13120 Y0.94500
X1.13020 Y0.94500
X1.13020 Y0.94400
X1.12920 Y0.94400
X1.12920 Y0.94300
X1.12820 Y0.94300
X1.12820 Y0.94200
X1.12720 Y0.94200
X1.12720 Y0.94100
X1.12620 Y0.94100
X1.12620 Y0.94000
X1.12520 Y0.94000
X1.12520 Y0.93900
X1.12420 Y0.93900
X1.12420 Y0.93800
G04 P0 ( dwell for no time -- G64 should not smooth over this point )
G00 Z0.11811 ( retract )

G00 X1.02420 Y0.93800 ( rapid move to begin. )
G01 Z0.00000 F7.87402 ( plunge. )
G04 P0 ( dwell for no time -- G64 should not smooth over this point )
X1.02420 Y0.93800
X1.02320 Y0.93800
X1.02320 Y0.93700
X1.02220 Y0.93700
X1.02220 Y0.88000
X1.02320 Y0.88000
X1.02320 Y0.87900
X1.02420 Y0.87900
X1.02420 Y0.87800
X1.02520 Y0.87800
X1.02520 Y0.87700
X1.02620 Y0.87700
X1.02620 Y0.87600
X1.02720 Y0.87600
X1.02720 Y0.87500
X1.02820 Y0.87500
X1.02820 Y0.87400
X1.02920 Y0.87400
X1.02920 Y0.87300
X1.03020 Y0.87300
X1.03020 Y0.87200
X1.03120 Y0.87200
X1.03120 Y0.87100
X1.03220 Y0.87100
X1.03220 Y0.87000
X1.03320 Y0.87000
X1.03320 Y0.86900
X1.03420 Y0.86900
X1.03420 Y0.86800
X1.03520 Y0.86800
X1.03520 Y0.86700
X1.03620 Y0.86700
X1.03620 Y0.86600
X1.03720 Y0.86600
X1.03720 Y0.86500
X1.03820 Y0.86500
X1.03820 Y0.86400
X1.03920 Y0.86400
X1.03920 Y0.86300
X1.09620 Y0.86300
X1.09620 Y0.86400
X1.09720 Y0.86400
X1.09720 Y0.86500
X1.09820 Y0.86500
X1.09820 Y0.86600
X1.09920 Y0.86600
X1.09920 Y0.86700
X1.10020 Y0.86700
X1.10020 Y0.86800
X1.10120 Y0.86800
X1.10120 Y0.86900
X1.10220 Y0.86900
X1.10220 Y0.87000
X1.10320 Y0.87000
X1.10320 Y0.87100
X1.10420 Y0.87100
X1.10420 Y0.87200
X1.10520 Y0.87200
X1.10520 Y0.87300
X1.10620 Y0.87300
X1.10620 Y0.87400
X1.10720 Y0.87400
X1.10720 Y0.87500
X1.10820 Y0.87500
X1.10820 Y0.87600
X1.10920 Y0.87600
X1.10920 Y0.87700
X1.11020 Y0.87700
X1.11020 Y0.87800
X1.11120 Y0.87800
X1.11120 Y0.87900
X1.11220 Y0.87900
X1.11220 Y0.88000
X1.11320 Y0.88000
X1.11320 Y0.93700
X1.11220 Y0.93700
X1.11220 Y0.93800
X1.11120 Y0.93800
X1.11120 Y0.93900
X1.11020 Y0.93900
X1.11020 Y0.94000
X1.10920 Y0.94000
X1.10920 Y0.94100
X1.10820 Y0.94100
X1.10820 Y0.94200
X1.10720 Y0.94200
X1.10720 Y0.94300
X1.10620 Y0.94300
X1.10620 Y0.94400
X1.10520 Y0.94400
X1.10520 Y0.94500
X1.10420 Y0.94500
X1.10420 Y0.94600
X1.10320 Y0.94600
X1.10320 Y0.94700
X1.10220 Y0.94700
X1.10220 Y0.94800
X1.10120 Y0.94800
X1.10120 Y0.94900
X1.10020 Y0.94900
X1.10020 Y0.95000
X1.09920 Y0.95000
X1.09920 Y0.95100
X1.09820 Y0.95100
X1.09820 Y0.95200
X1.09720 Y0.95200
X1.09720 Y0.95300
X1.09620 Y0.95300
X1.09620 Y0.95400
X1.03920 Y0.95400
X1.03920 Y0.95300
X1.03820 Y0.95300
X1.03820 Y0.95200
X1.03720 Y0.95200
X1.03720 Y0.95100
X1.03620 Y0.95100
X1.03620 Y0.95000
X1.03520 Y0.95000
X1.03520 Y0.94900
X1.03420 Y0.94900
X1.03420 Y0.94800
X1.03320 Y0.94800
X1.03320 Y0.94700
X1.03220 Y0.94700
X1.03220 Y0.94600
X1.03120 Y0.94600
X1.03120 Y0.94500
X1.03020 Y0.94500
X1.03020 Y0.94400
X1.02920 Y0.94400
X1.02920 Y0.94300
X1.02820 Y0.94300
X1.02820 Y0.94200
X1.02720 Y0.94200
X1.02720 Y0.94100
X1.02620 Y0.94100
X1.02620 Y0.94000
X1.02520 Y0.94000
X1.02520 Y0.93900
X1.02420 Y0.93900
X1.02420 Y0.93800
G04 P0 ( dwell for no time -- G64 should not smooth over this point )
G00 Z0.11811 ( retract )

G00 X0.92420 Y0.93800 ( rapid move to begin. )
G01 Z0.00000 F7.87402 ( plunge. )
G04 P0 ( dwell for no time -- G64 should not smooth over this point )
X0.92420 Y0.93800
X0.92320 Y0.93800
X0.92320 Y0.93700
X0.92220 Y0.93700
X0.92220 Y0.88000
X0.92320 Y0.88000
X0.92320 Y0.87900
X0.92420 Y0.87900
X0.92420 Y0.87800
X0.92520 Y0.87800
X0.92520 Y0.87700
X0.92620 Y0.87700
X0.92620 Y0.87600
X0.92720 Y0.87600
X0.92720 Y0.87500
X0.92820 Y0.87500
X0.92820 Y0.87400
X0.92920 Y0.87400
X0.92920 Y0.87300
X0.93020 Y0.87300
X0.93020 Y0.87200
X0.93120 Y0.87200
X0.93120 Y0.87100
X0.93220 Y0.87100
X0.93220 Y0.87000
X0.93320 Y0.87000
X0.93320 Y0.86900
X0.93420 Y0.86900
X0.93420 Y0.86800
X0.93520 Y0.86800
X0.93520 Y0.86700
X0.93620 Y0.86700
X0.93620 Y0.86600
X0.93720 Y0.86600
X0.93720 Y0.86500
X0.93820 Y0.86500
X0.93820 Y0.86400
X0.93920 Y0.86400
X0.93920 Y0.86300
X0.99620 Y0.86300
X0.99620 Y0.86400
X0.99720 Y0.86400
X0.99720 Y0.86500
X0.99820 Y0.86500
X0.99820 Y0.86600
X0.99920 Y0.86600
X0.99920 Y0.86700
X1.00020 Y0.86700
X1.00020 Y0.86800
X1.00120 Y0.86800
X1.00120 Y0.86900
X1.00220 Y0.86900
X1.00220 Y0.87000
X1.00320 Y0.87000
X1.00320 Y0.87100
X1.00420 Y0.87100
X1.00420 Y0.87200
X1.00520 Y0.87200
X1.00520 Y0.87300
X1.00620 Y0.87300
X1.00620 Y0.87400
X1.00720 Y0.87400
X1.00720 Y0.87500
X1.00820 Y0.87500
X1.00820 Y0.87600
X1.00920 Y0.87600
X1.00920 Y0.87700
X1.01020 Y0.87700
X1.01020 Y0.87800
X1.01120 Y0.87800
X1.01120 Y0.87900
X1.01220 Y0.87900
X1.01220 Y0.88000
X1.01320 Y0.88000
X1.01320 Y0.93700
X1.01220 Y0.93700
X1.01220 Y0.93800
X1.01120 Y0.93800
X1.01120 Y0.93900
X1.01020 Y0.93900
X1.01020 Y0.94000
X1.00920 Y0.94000
X1.00920 Y0.94100
X1.00820 Y0.94100
X1.00820 Y0.94200
X1.00720 Y0.94200
X1.00720 Y0.94300
X1.00620 Y0.94300
X1.00620 Y0.94400
X1.00520 Y0.94400
X1.00520 Y0.94500
X1.00420 Y0.94500
X1.00420 Y0.94600
X1.00320 Y0.94600
X1.00320 Y0.94700
X1.00220 Y0.94700
X1.00220 Y0.94800
X1.00120 Y0.94800
X1.00120 Y0.94900
X1.00020 Y0.94900
X1.00020 Y0.95000
X0.99920 Y0.95000
X0.99920 Y0.95100
X0.99820 Y0.95100
X0.99820 Y0.95200
X0.99720 Y0.95200
X0.99720 Y0.95300
X0.99620 Y0.95300
X0.99620 Y0.95400
X0.93920 Y0.95400
X0.93920 Y0.95300
X0.93820 Y0.95300
X0.93820 Y0.95200
X0.93720 Y0.95200
X0.93720 Y0.95100
X0.93620 Y0.95100
X0.93620 Y0.95000
X0.93520 Y0.95000
X0.93520 Y0.94900
X0.93420 Y0.94900
X0.93420 Y0.94800
X0.93320 Y0.94800
X0.93320 Y0.94700
X0.93220 Y0.94700
X0.93220 Y0.94600
X0.93120 Y0.94600
X0.93120 Y0.94500
X0.93020 Y0.94500
X0.93020 Y0.94400
X0.92920 Y0.94400
X0.92920 Y0.94300
X0.92820 Y0.94300
X0.92820 Y0.94200
X0.92720 Y0.94200
X0.92720 Y0.94100
X0.92620 Y0.94100
X0.92620 Y0.94000
X0.92520 Y0.94000
X0.92520 Y0.93900
X0.92420 Y0.93900
X0.92420 Y0.93800
G04 P0 ( dwell for no time -- G64 should not smooth over this point )
G00 Z0.11811 ( retract )

G00 X0.82420 Y0.93800 ( rapid move to begin. )
G01 Z0.00000 F7.87402 ( plunge. )
G04 P0 ( dwell for no time -- G64 should not smooth over this point )
X0.82420 Y0.93800
X0.82320 Y0.93800
X0.82320 Y0.93700
X0.82220 Y0.93700
X0.82220 Y0.88000
X0.82320 Y0.88000
X0.82320 Y0.87900
X0.82420 Y0.87900
X0.82420 Y0.87800
X0.82520 Y0.87800
X0.82520 Y0.87700
X0.82620 Y0.87700
X0.82620 Y0.87600
X0.82720 Y0.87600
X0.82720 Y0.87500
X0.82820 Y0.87500
X0.82820 Y0.87400
X0.82920 Y0.87400
X0.82920 Y0.87300
X0.83020 Y0.87300
X0.83020 Y0.87200
X0.83120 Y0.87200
X0.83120 Y0.87100
X0.83220 Y0.87100
X0.83220 Y0.87000
X0.83320 Y0.87000
X0.83320 Y0.86900
X0.83420 Y0.86900
X0.83420 Y0.86800
X0.83520 Y0.86800
X0.83520 Y0.86700
X0.83620 Y0.86700
X0.83620 Y0.86600
X0.83720 Y0.86600
X0.83720 Y0.86500
X0.83820 Y0.86500
X0.83820 Y0.86400
X0.83920 Y0.86400
X0.83920 Y0.86300
X0.89620 Y0.86300
X0.89620 Y0.86400
X0.89720 Y0.86400
X0.89720 Y0.86500
X0.89820 Y0.86500
X0.89820 Y0.86600
X0.89920 Y0.86600
X0.89920 Y0.86700
X0.90020 Y0.86700
X0.90020 Y0.86800
X0.90120 Y0.86800
X0.90120 Y0.86900
X0.90220 Y0.86900
X0.90220 Y0.87000
X0.90320 Y0.87000
X0.90320 Y0.87100
X0.90420 Y0.87100
X0.90420 Y0.87200
X0.90520 Y0.87200
X0.90520 Y0.87300
X0.90620 Y0.87300
X0.90620 Y0.87400
X0.90720 Y0.87400
X0.90720 Y0.87500
X0.90820 Y0.87500
X0.90820 Y0.87600
X0.90920 Y0.87600
X0.90920 Y0.87700
X0.91020 Y0.87700
X0.91020 Y0.87800
X0.91120 Y0.87800
X0.91120 Y0.87900
X0.91220 Y0.87900
X0.91220 Y0.88000
X0.91320 Y0.88000
X0.91320 Y0.93700
X0.91220 Y0.93700
X0.91220 Y0.93800
X0.91120 Y0.93800
X0.91120 Y0.93900
X0.91020 Y0.93900
X0.91020 Y0.94000
X0.90920 Y0.94000
X0.90920 Y0.94100
X0.90820 Y0.94100
X0.90820 Y0.94200
X0.90720 Y0.94200
X0.90720 Y0.94300
X0.90620 Y0.94300
X0.90620 Y0.94400
X0.90520 Y0.94400
X0.90520 Y0.94500
X0.90420 Y0.94500
X0.90420 Y0.94600
X0.90320 Y0.94600
X0.90320 Y0.94700
X0.90220 Y0.94700
X0.90220 Y0.94800
X0.90120 Y0.94800
X0.90120 Y0.94900
X0.90020 Y0.94900
X0.90020 Y0.95000
X0.89920 Y0.95000
X0.89920 Y0.95100
X0.89820 Y0.95100
X0.89820 Y0.95200
X0.89720 Y0.95200
X0.89720 Y0.95300
X0.89620 Y0.95300
X0.89620 Y0.95400
X0.83920 Y0.95400
X0.83920 Y0.95300
X0.83820 Y0.95300
X0.83820 Y0.95200
X0.83720 Y0.95200
X0.83720 Y0.95100
X0.83620 Y0.95100
X0.83620 Y0.95000
X0.83520 Y0.95000
X0.83520 Y0.94900
X0.83420 Y0.94900
X0.83420 Y0.94800
X0.83320 Y0.94800
X0.83320 Y0.94700
X0.83220 Y0.94700
X0.83220 Y0.94600
X0.83120 Y0.94600
X0.83120 Y0.94500
X0.83020 Y0.94500
X0.83020 Y0.94400
X0.82920 Y0.94400
X0.82920 Y0.94300
X0.82820 Y0.94300
X0.82820 Y0.94200
X0.82720 Y0.94200
X0.82720 Y0.94100
X0.82620 Y0.94100
X0.82620 Y0.94000
X0.82520 Y0.94000
X0.82520 Y0.93900
X0.82420 Y0.93900
X0.82420 Y0.93800
G04 P0 ( dwell for no time -- G64 should not smooth over this point )
G00 Z0.11811 ( retract )

G00 X0.21920 Y0.86800 ( rapid move to begin. )
G01 Z0.00000 F7.87402 ( plunge. )
G04 P0 ( dwell for no time -- G64 should not smooth over this point )
X0.21920 Y0.86800
X0.21820 Y0.86800
X0.21820 Y0.86700
X0.21720 Y0.86700
X0.21720 Y0.86500
X0.21620 Y0.86500
X0.21620 Y0.86300
X0.21520 Y0.86300
X0.21520 Y0.86000
X0.21420 Y0.86000
X0.21420 Y0.85700
X0.21320 Y0.85700
X0.21320 Y0.85400
X0.21220 Y0.85400
X0.21220 Y0.80500
X0.21320 Y0.80500
X0.21320 Y0.80200
X0.21420 Y0.80200
X0.21420 Y0.79900
X0.21520 Y0.79900
X0.21520 Y0.79600
X0.21620 Y0.79600
X0.21620 Y0.79400
X0.21720 Y0.79400
X0.21720 Y0.79300
X0.21820 Y0.79300
X0.21820 Y0.79100
X0.21920 Y0.79100
X0.21920 Y0.78900
X0.22020 Y0.78900
X0.22020 Y0.78800
X0.22120 Y0.78800
X0.22120 Y0.78700
X0.22220 Y0.78700
X0.22220 Y0.78600
X0.22320 Y0.78600
X0.22320 Y0.78500
X0.22420 Y0.78500
X0.22420 Y0.78400
X0.22620 Y0.78400
X0.22620 Y0.78300
X0.22720 Y0.78300
X0.22720 Y0.78200
X0.22920 Y0.78200
X0.22920 Y0.78100
X0.23120 Y0.78100
X0.23120 Y0.78000
X0.23220 Y0.78000
X0.23220 Y0.77900
X0.23420 Y0.77900
X0.23420 Y0.77800
X0.23620 Y0.77800
X0.23620 Y0.77700
X0.24020 Y0.77700
X0.24020 Y0.77600
X0.24620 Y0.77600
X0.24620 Y0.77500
X0.28720 Y0.77500
X0.28720 Y0.77600
X0.29320 Y0.77600
X0.29320 Y0.77700
X0.29720 Y0.77700
X0.29720 Y0.77800
X0.29920 Y0.77800
X0.29920 Y0.77900
X0.30120 Y0.77900
X0.30120 Y0.78000
X0.30220 Y0.78000
X0.30220 Y0.78100
X0.30420 Y0.78100
X0.30420 Y0.78200
X0.30620 Y0.78200
X0.30620 Y0.78300
X0.30720 Y0.78300
X0.30720 Y0.78400
X0.30920 Y0.78400
X0.30920 Y0.78500
X0.31020 Y0.78500
X0.31020 Y0.78600
X0.31120 Y0.78600
X0.31120 Y0.78700
X0.31220 Y0.78700
X0.31220 Y0.78800
X0.31320 Y0.78800
X0.31320 Y0.78900
X0.31420 Y0.78900
X0.31420 Y0.79100
X0.31520 Y0.79100
X0.31520 Y0.79200
X0.31620 Y0.79200
X0.31620 Y0.79400
X0.31720 Y0.79400
X0.31720 Y0.79600
X0.31820 Y0.79600
X0.31820 Y0.79800
X0.31920 Y0.79800
X0.31920 Y0.80200
X0.32020 Y0.80200
X0.32020 Y0.80500
X0.32120 Y0.80500
X0.32120 Y0.85400
X0.32020 Y0.85400
X0.32020 Y0.85700
X0.31920 Y0.85700
X0.31920 Y0.86100
X0.31820 Y0.86100
X0.31820 Y0.86300
X0.31720 Y0.86300
X0.31720 Y0.86500
X0.31620 Y0.86500
X0.31620 Y0.86700
X0.31520 Y0.86700
X0.31520 Y0.86800
X0.31420 Y0.86800
X0.31420 Y0.87000
X0.31320 Y0.87000
X0.31320 Y0.87100
X0.31220 Y0.87100
X0.31220 Y0.87200
X0.31120 Y0.87200
X0.31120 Y0.87300
X0.31020 Y0.87300
X0.31020 Y0.87400
X0.30920 Y0.87400
X0.30920 Y0.87500
X0.30720 Y0.87500
X0.30720 Y0.87600
X0.30620 Y0.87600
X0.30620 Y0.87700
X0.30420 Y0.87700
X0.30420 Y0.87800
X0.30220 Y0.87800
X0.30220 Y0.87900
X0.30120 Y0.87900
X0.30120 Y0.88000
X0.29920 Y0.88000
X0.29920 Y0.88100
X0.29720 Y0.88100
X0.29720 Y0.88200
X0.29320 Y0.88200
X0.29320 Y0.88300
X0.28720 Y0.88300
X0.28720 Y0.88400
X0.24620 Y0.88400
X0.24620 Y0.88300
X0.24020 Y0.88300
X0.24020 Y0.88200
X0.23620 Y0.88200
X0.23620 Y0.88100
X0.23420 Y0.88100
X0.23420 Y0.88000
X0.23220 Y0.88000
X0.23220 Y0.87900
X0.23120 Y0.87900
X0.23120 Y0.87800
X0.22920 Y0.87800
X0.22920 Y0.87700
X0.22720 Y0.87700
X0.22720 Y0.87600
X0.22620 Y0.87600
X0.22620 Y0.87500
X0.22420 Y0.87500
X0.22420 Y0.87400
X0.22320 Y0.87400
X0.22320 Y0.87300
X0.22220 Y0.87300
X0.22220 Y0.87200
X0.22120 Y0.87200
X0.22120 Y0.87100
X0.22020 Y0.87100
X0.22020 Y0.87000
X0.21920 Y0.87000
X0.21920 Y0.86800
G04 P0 ( dwell for no time -- G64 should not smooth over this point )
G00 Z0.11811 ( retract )

G00 X1.77120 Y0.86600 ( rapid move to begin. )
G01 Z0.00000 F7.87402 ( plunge. )
G04 P0 ( dwell for no time -- G64 should not smooth over this point )
X1.77120 Y0.86600
X1.77020 Y0.86600
X1.77020 Y0.86500
X1.76920 Y0.86500
X1.76920 Y0.86300
X1.76820 Y0.86300
X1.76820 Y0.86100
X1.76720 Y0.86100
X1.76720 Y0.85800
X1.76620 Y0.85800
X1.76620 Y0.85500
X1.76520 Y0.85500
X1.76520 Y0.85200
X1.76420 Y0.85200
X1.76420 Y0.80300
X1.76520 Y0.80300
X1.76520 Y0.80000
X1.76620 Y0.80000
X1.76620 Y0.79700
X1.76720 Y0.79700
X1.76720 Y0.79400
X1.76820 Y0.79400
X1.76820 Y0.79200
X1.76920 Y0.79200
X1.76920 Y0.79100
X1.77020 Y0.79100
X1.77020 Y0.78900
X1.77120 Y0.78900
X1.77120 Y0.78700
X1.77220 Y0.78700
X1.77220 Y0.78600
X1.77320 Y0.78600
X1.77320 Y0.78500
X1.77420 Y0.78500
X1.77420 Y0.78400
X1.77520 Y0.78400
X1.77520 Y0.78300
X1.77620 Y0.78300
X1.77620 Y0.78200
X1.77820 Y0.78200
X1.77820 Y0.78100
X1.77920 Y0.78100
X1.77920 Y0.78000
X1.78120 Y0.78000
X1.78120 Y0.77900
X1.78320 Y0.77900
X1.78320 Y0.77800
X1.78420 Y0.77800
X1.78420 Y0.77700
X1.78620 Y0.77700
X1.78620 Y0.77600
X1.78820 Y0.77600
X1.78820 Y0.77500
X1.79220 Y0.77500
X1.79220 Y0.77400
X1.79820 Y0.77400
X1.79820 Y0.77300
X1.83920 Y0.77300
X1.83920 Y0.77400
X1.84520 Y0.77400
X1.84520 Y0.77500
X1.84920 Y0.77500
X1.84920 Y0.77600
X1.85120 Y0.77600
X1.85120 Y0.77700
X1.85320 Y0.77700
X1.85320 Y0.77800
X1.85420 Y0.77800
X1.85420 Y0.77900
X1.85620 Y0.77900
X1.85620 Y0.78000
X1.85820 Y0.78000
X1.85820 Y0.78100
X1.85920 Y0.78100
X1.85920 Y0.78200
X1.86120 Y0.78200
X1.86120 Y0.78300
X1.86220 Y0.78300
X1.86220 Y0.78400
X1.86320 Y0.78400
X1.86320 Y0.78500
X1.86420 Y0.78500
X1.86420 Y0.78600
X1.86520 Y0.78600
X1.86520 Y0.78700
X1.86620 Y0.78700
X1.86620 Y0.78900
X1.86720 Y0.78900
X1.86720 Y0.79000
X1.86820 Y0.79000
X1.86820 Y0.79200
X1.86920 Y0.79200
X1.86920 Y0.79400
X1.87020 Y0.79400
X1.87020 Y0.79600
X1.87120 Y0.79600
X1.87120 Y0.80000
X1.87220 Y0.80000
X1.87220 Y0.80300
X1.87320 Y0.80300
X1.87320 Y0.85200
X1.87220 Y0.85200
X1.87220 Y0.85500
X1.87120 Y0.85500
X1.87120 Y0.85900
X1.87020 Y0.85900
X1.87020 Y0.86100
X1.86920 Y0.86100
X1.86920 Y0.86300
X1.86820 Y0.86300
X1.86820 Y0.86500
X1.86720 Y0.86500
X1.86720 Y0.86600
X1.86620 Y0.86600
X1.86620 Y0.86800
X1.86520 Y0.86800
X1.86520 Y0.86900
X1.86420 Y0.86900
X1.86420 Y0.87000
X1.86320 Y0.87000
X1.86320 Y0.87100
X1.86220 Y0.87100
X1.86220 Y0.87200
X1.86120 Y0.87200
X1.86120 Y0.87300
X1.85920 Y0.87300
X1.85920 Y0.87400
X1.85820 Y0.87400
X1.85820 Y0.87500
X1.85620 Y0.87500
X1.85620 Y0.87600
X1.85420 Y0.87600
X1.85420 Y0.87700
X1.85320 Y0.87700
X1.85320 Y0.87800
X1.85120 Y0.87800
X1.85120 Y0.87900
X1.84920 Y0.87900
X1.84920 Y0.88000
X1.84520 Y0.88000
X1.84520 Y0.88100
X1.83920 Y0.88100
X1.83920 Y0.88200
X1.79820 Y0.88200
X1.79820 Y0.88100
X1.79220 Y0.88100
X1.79220 Y0.88000
X1.78820 Y0.88000
X1.78820 Y0.87900
X1.78620 Y0.87900
X1.78620 Y0.87800
X1.78420 Y0.87800
X1.78420 Y0.87700
X1.78320 Y0.87700
X1.78320 Y0.87600
X1.78120 Y0.87600
X1.78120 Y0.87500
X1.77920 Y0.87500
X1.77920 Y0.87400
X1.77820 Y0.87400
X1.77820 Y0.87300
X1.77620 Y0.87300
X1.77620 Y0.87200
X1.77520 Y0.87200
X1.77520 Y0.87100
X1.77420 Y0.87100
X1.77420 Y0.87000
X1.77320 Y0.87000
X1.77320 Y0.86900
X1.77220 Y0.86900
X1.77220 Y0.86800
X1.77120 Y0.86800
X1.77120 Y0.86600
G04 P0 ( dwell for no time -- G64 should not smooth over this point )
G00 Z0.11811 ( retract )

G00 X1.12420 Y0.83800 ( rapid move to begin. )
G01 Z0.00000 F7.87402 ( plunge. )
G04 P0 ( dwell for no time -- G64 should not smooth over this point )
X1.12420 Y0.83800
X1.12320 Y0.83800
X1.12320 Y0.83700
X1.12220 Y0.83700
X1.12220 Y0.78000
X1.12320 Y0.78000
X1.12320 Y0.77900
X1.12420 Y0.77900
X1.12420 Y0.77800
X1.12520 Y0.77800
X1.12520 Y0.77700
X1.12620 Y0.77700
X1.12620 Y0.77600
X1.12720 Y0.77600
X1.12720 Y0.77500
X1.12820 Y0.77500
X1.12820 Y0.77400
X1.12920 Y0.77400
X1.12920 Y0.77300
X1.13020 Y0.77300
X1.13020 Y0.77200
X1.13120 Y0.77200
X1.13120 Y0.77100
X1.13220 Y0.77100
X1.13220 Y0.77000
X1.13320 Y0.77000
X1.13320 Y0.76900
X1.13420 Y0.76900
X1.13420 Y0.76800
X1.13520 Y0.76800
X1.13520 Y0.76700
X1.13620 Y0.76700
X1.13620 Y0.76600
X1.13720 Y0.76600
X1.13720 Y0.76500
X1.13820 Y0.76500
X1.13820 Y0.76400
X1.13920 Y0.76400
X1.13920 Y0.76300
X1.19620 Y0.76300
X1.19620 Y0.76400
X1.19720 Y0.76400
X1.19720 Y0.76500
X1.19820 Y0.76500
X1.19820 Y0.76600
X1.19920 Y0.76600
X1.19920 Y0.76700
X1.20020 Y0.76700
X1.20020 Y0.76800
X1.20120 Y0.76800
X1.20120 Y0.76900
X1.20220 Y0.76900
X1.20220 Y0.77000
X1.20320 Y0.77000
X1.20320 Y0.77100
X1.20420 Y0.77100
X1.20420 Y0.77200
X1.20520 Y0.77200
X1.20520 Y0.77300
X1.20620 Y0.77300
X1.20620 Y0.77400
X1.20720 Y0.77400
X1.20720 Y0.77500
X1.20820 Y0.77500
X1.20820 Y0.77600
X1.20920 Y0.77600
X1.20920 Y0.77700
X1.21020 Y0.77700
X1.21020 Y0.77800
X1.21120 Y0.77800
X1.21120 Y0.77900
X1.21220 Y0.77900
X1.21220 Y0.78000
X1.21320 Y0.78000
X1.21320 Y0.83700
X1.21220 Y0.83700
X1.21220 Y0.83800
X1.21120 Y0.83800
X1.21120 Y0.83900
X1.21020 Y0.83900
X1.21020 Y0.84000
X1.20920 Y0.84000
X1.20920 Y0.84100
X1.20820 Y0.84100
X1.20820 Y0.84200
X1.20720 Y0.84200
X1.20720 Y0.84300
X1.20620 Y0.84300
X1.20620 Y0.84400
X1.20520 Y0.84400
X1.20520 Y0.84500
X1.20420 Y0.84500
X1.20420 Y0.84600
X1.20320 Y0.84600
X1.20320 Y0.84700
X1.20220 Y0.84700
X1.20220 Y0.84800
X1.20120 Y0.84800
X1.20120 Y0.84900
X1.20020 Y0.84900
X1.20020 Y0.85000
X1.19920 Y0.85000
X1.19920 Y0.85100
X1.19820 Y0.85100
X1.19820 Y0.85200
X1.19720 Y0.85200
X1.19720 Y0.85300
X1.19620 Y0.85300
X1.19620 Y0.85400
X1.13920 Y0.85400
X1.13920 Y0.85300
X1.13820 Y0.85300
X1.13820 Y0.85200
X1.13720 Y0.85200
X1.13720 Y0.85100
X1.13620 Y0.85100
X1.13620 Y0.85000
X1.13520 Y0.85000
X1.13520 Y0.84900
X1.13420 Y0.84900
X1.13420 Y0.84800
X1.13320 Y0.84800
X1.13320 Y0.84700
X1.13220 Y0.84700
X1.13220 Y0.84600
X1.13120 Y0.84600
X1.13120 Y0.84500
X1.13020 Y0.84500
X1.13020 Y0.84400
X1.12920 Y0.84400
X1.12920 Y0.84300
X1.12820 Y0.84300
X1.12820 Y0.84200
X1.12720 Y0.84200
X1.12720 Y0.84100
X1.12620 Y0.84100
X1.12620 Y0.84000
X1.12520 Y0.84000
X1.12520 Y0.83900
X1.12420 Y0.83900
X1.12420 Y0.83800
G04 P0 ( dwell for no time -- G64 should not smooth over this point )
G00 Z0.11811 ( retract )

G00 X1.02420 Y0.83800 ( rapid move to begin. )
G01 Z0.00000 F7.87402 ( plunge. )
G04 P0 ( dwell for no time -- G64 should not smooth over this point )
X1.02420 Y0.83800
X1.02320 Y0.83800
X1.02320 Y0.83700
X1.02220 Y0.83700
X1.02220 Y0.78000
X1.02320 Y0.78000
X1.02320 Y0.77900
X1.02420 Y0.77900
X1.02420 Y0.77800
X1.02520 Y0.77800
X1.02520 Y0.77700
X1.02620 Y0.77700
X1.02620 Y0.77600
X1.02720 Y0.77600
X1.02720 Y0.77500
X1.02820 Y0.77500
X1.02820 Y0.77400
X1.02920 Y0.77400
X1.02920 Y0.77300
X1.03020 Y0.77300
X1.03020 Y0.77200
X1.03120 Y0.77200
X1.03120 Y0.77100
X1.03220 Y0.77100
X1.03220 Y0.77000
X1.03320 Y0.77000
X1.03320 Y0.76900
X1.03420 Y0.76900
X1.03420 Y0.76800
X1.03520 Y0.76800
X1.03520 Y0.76700
X1.03620 Y0.76700
X1.03620 Y0.76600
X1.03720 Y0.76600
X1.03720 Y0.76500
X1.03820 Y0.76500
X1.03820 Y0.76400
X1.03920 Y0.76400
X1.03920 Y0.76300
X1.09620 Y0.76300
X1.09620 Y0.76400
X1.09720 Y0.76400
X1.09720 Y0.76500
X1.09820 Y0.76500
X1.09820 Y0.76600
X1.09920 Y0.76600
X1.09920 Y0.76700
X1.10020 Y0.76700
X1.10020 Y0.76800
X1.10120 Y0.76800
X1.10120 Y0.76900
X1.10220 Y0.76900
X1.10220 Y0.77000
X1.10320 Y0.77000
X1.10320 Y0.77100
X1.10420 Y0.77100
X1.10420 Y0.77200
X1.10520 Y0.77200
X1.10520 Y0.77300
X1.10620 Y0.77300
X1.10620 Y0.77400
X1.10720 Y0.77400
X1.10720 Y0.77500
X1.10820 Y0.77500
X1.10820 Y0.77600
X1.10920 Y0.77600
X1.10920 Y0.77700
X1.11020 Y0.77700
X1.11020 Y0.77800
X1.11120 Y0.77800
X1.11120 Y0.77900
X1.11220 Y0.77900
X1.11220 Y0.78000
X1.11320 Y0.78000
X1.11320 Y0.83700
X1.11220 Y0.83700
X1.11220 Y0.83800
X1.11120 Y0.83800
X1.11120 Y0.83900
X1.11020 Y0.83900
X1.11020 Y0.84000
X1.10920 Y0.84000
X1.10920 Y0.84100
X1.10820 Y0.84100
X1.10820 Y0.84200
X1.10720 Y0.84200
X1.10720 Y0.84300
X1.10620 Y0.84300
X1.10620 Y0.84400
X1.10520 Y0.84400
X1.10520 Y0.84500
X1.10420 Y0.84500
X1.10420 Y0.84600
X1.10320 Y0.84600
X1.10320 Y0.84700
X1.10220 Y0.84700
X1.10220 Y0.84800
X1.10120 Y0.84800
X1.10120 Y0.84900
X1.10020 Y0.84900
X1.10020 Y0.85000
X1.09920 Y0.85000
X1.09920 Y0.85100
X1.09820 Y0.85100
X1.09820 Y0.85200
X1.09720 Y0.85200
X1.09720 Y0.85300
X1.09620 Y0.85300
X1.09620 Y0.85400
X1.03920 Y0.85400
X1.03920 Y0.85300
X1.03820 Y0.85300
X1.03820 Y0.85200
X1.03720 Y0.85200
X1.03720 Y0.85100
X1.03620 Y0.85100
X1.03620 Y0.85000
X1.03520 Y0.85000
X1.03520 Y0.84900
X1.03420 Y0.84900
X1.03420 Y0.84800
X1.03320 Y0.84800
X1.03320 Y0.84700
X1.03220 Y0.84700
X1.03220 Y0.84600
X1.03120 Y0.84600
X1.03120 Y0.84500
X1.03020 Y0.84500
X1.03020 Y0.84400
X1.02920 Y0.84400
X1.02920 Y0.84300
X1.02820 Y0.84300
X1.02820 Y0.84200
X1.02720 Y0.84200
X1.02720 Y0.84100
X1.02620 Y0.84100
X1.02620 Y0.84000
X1.02520 Y0.84000
X1.02520 Y0.83900
X1.02420 Y0.83900
X1.02420 Y0.83800
G04 P0 ( dwell for no time -- G64 should not smooth over this point )
G00 Z0.11811 ( retract )

G00 X0.92420 Y0.83800 ( rapid move to begin. )
G01 Z0.00000 F7.87402 ( plunge. )
G04 P0 ( dwell for no time -- G64 should not smooth over this point )
X0.92420 Y0.83800
X0.92320 Y0.83800
X0.92320 Y0.83700
X0.92220 Y0.83700
X0.92220 Y0.78000
X0.92320 Y0.78000
X0.92320 Y0.77900
X0.92420 Y0.77900
X0.92420 Y0.77800
X0.92520 Y0.77800
X0.92520 Y0.77700
X0.92620 Y0.77700
X0.92620 Y0.77600
X0.92720 Y0.77600
X0.92720 Y0.77500
X0.92820 Y0.77500
X0.92820 Y0.77400
X0.92920 Y0.77400
X0.92920 Y0.77300
X0.93020 Y0.77300
X0.93020 Y0.77200
X0.93120 Y0.77200
X0.93120 Y0.77100
X0.93220 Y0.77100
X0.93220 Y0.77000
X0.93320 Y0.77000
X0.93320 Y0.76900
X0.93420 Y0.76900
X0.93420 Y0.76800
X0.93520 Y0.76800
X0.93520 Y0.76700
X0.93620 Y0.76700
X0.93620 Y0.76600
X0.93720 Y0.76600
X0.93720 Y0.76500
X0.93820 Y0.76500
X0.93820 Y0.76400
X0.93920 Y0.76400
X0.93920 Y0.76300
X0.99620 Y0.76300
X0.99620 Y0.76400
X0.99720 Y0.76400
X0.99720 Y0.76500
X0.99820 Y0.76500
X0.99820 Y0.76600
X0.99920 Y0.76600
X0.99920 Y0.76700
X1.00020 Y0.76700
X1.00020 Y0.76800
X1.00120 Y0.76800
X1.00120 Y0.76900
X1.00220 Y0.76900
X1.00220 Y0.77000
X1.00320 Y0.77000
X1.00320 Y0.77100
X1.00420 Y0.77100
X1.00420 Y0.77200
X1.00520 Y0.77200
X1.00520 Y0.77300
X1.00620 Y0.77300
X1.00620 Y0.77400
X1.00720 Y0.77400
X1.00720 Y0.77500
X1.00820 Y0.77500
X1.00820 Y0.77600
X1.00920 Y0.77600
X1.00920 Y0.77700
X1.01020 Y0.77700
X1.01020 Y0.77800
X1.01120 Y0.77800
X1.01120 Y0.77900
X1.01220 Y0.77900
X1.01220 Y0.78000
X1.01320 Y0.78000
X1.01320 Y0.83700
X1.01220 Y0.83700
X1.01220 Y0.83800
X1.01120 Y0.83800
X1.01120 Y0.83900
X1.01020 Y0.83900
X1.01020 Y0.84000
X1.00920 Y0.84000
X1.00920 Y0.84100
X1.00820 Y0.84100
X1.00820 Y0.84200
X1.00720 Y0.84200
X1.00720 Y0.84300
X1.00620 Y0.84300
X1.00620 Y0.84400
X1.00520 Y0.84400
X1.00520 Y0.84500
X1.00420 Y0.84500
X1.00420 Y0.84600
X1.00320 Y0.84600
X1.00320 Y0.84700
X1.00220 Y0.84700
X1.00220 Y0.84800
X1.00120 Y0.84800
X1.00120 Y0.84900
X1.00020 Y0.84900
X1.00020 Y0.85000
X0.99920 Y0.85000
X0.99920 Y0.85100
X0.99820 Y0.85100
X0.99820 Y0.85200
X0.99720 Y0.85200
X0.99720 Y0.85300
X0.99620 Y0.85300
X0.99620 Y0.85400
X0.93920 Y0.85400
X0.93920 Y0.85300
X0.93820 Y0.85300
X0.93820 Y0.85200
X0.93720 Y0.85200
X0.93720 Y0.85100
X0.93620 Y0.85100
X0.93620 Y0.85000
X0.93520 Y0.85000
X0.93520 Y0.84900
X0.93420 Y0.84900
X0.93420 Y0.84800
X0.93320 Y0.84800
X0.93320 Y0.84700
X0.93220 Y0.84700
X0.93220 Y0.84600
X0.93120 Y0.84600
X0.93120 Y0.84500
X0.93020 Y0.84500
X0.93020 Y0.84400
X0.92920 Y0.84400
X0.92920 Y0.84300
X0.92820 Y0.84300
X0.92820 Y0.84200
X0.92720 Y0.84200
X0.92720 Y0.84100
X0.92620 Y0.84100
X0.92620 Y0.84000
X0.92520 Y0.84000
X0.92520 Y0.83900
X0.92420 Y0.83900
X0.92420 Y0.83800
G04 P0 ( dwell for no time -- G64 should not smooth over this point )
G00 Z0.11811 ( retract )

G00 X0.82420 Y0.83800 ( rapid move to begin. )
G01 Z0.00000 F7.87402 ( plunge. )
G04 P0 ( dwell for no time -- G64 should not smooth over this point )
X0.82420 Y0.83800
X0.82320 Y0.83800
X0.82320 Y0.83700
X0.82220 Y0.83700
X0.82220 Y0.78000
X0.82320 Y0.78000
X0.82320 Y0.77900
X0.82420 Y0.77900
X0.82420 Y0.77800
X0.82520 Y0.77800
X0.82520 Y0.77700
X0.82620 Y0.77700
X0.82620 Y0.77600
X0.82720 Y0.77600
X0.82720 Y0.77500
X0.82820 Y0.77500
X0.82820 Y0.77400
X0.82920 Y0.77400
X0.82920 Y0.77300
X0.83020 Y0.77300
X0.83020 Y0.77200
X0.83120 Y0.77200
X0.83120 Y0.77100
X0.83220 Y0.77100
X0.83220 Y0.77000
X0.83320 Y0.77000
X0.83320 Y0.76900
X0.83420 Y0.76900
X0.83420 Y0.76800
X0.83520 Y0.76800
X0.83520 Y0.76700
X0.83620 Y0.76700
X0.83620 Y0.76600
X0.83720 Y0.76600
X0.83720 Y0.76500
X0.83820 Y0.76500
X0.83820 Y0.76400
X0.83920 Y0.76400
X0.83920 Y0.76300
X0.89620 Y0.76300
X0.89620 Y0.76400
X0.89720 Y0.76400
X0.89720 Y0.76500
X0.89820 Y0.76500
X0.89820 Y0.76600
X0.89920 Y0.76600
X0.89920 Y0.76700
X0.90020 Y0.76700
X0.90020 Y0.76800
X0.90120 Y0.76800
X0.90120 Y0.76900
X0.90220 Y0.76900
X0.90220 Y0.77000
X0.90320 Y0.77000
X0.90320 Y0.77100
X0.90420 Y0.77100
X0.90420 Y0.77200
X0.90520 Y0.77200
X0.90520 Y0.77300
X0.90620 Y0.77300
X0.90620 Y0.77400
X0.90720 Y0.77400
X0.90720 Y0.77500
X0.90820 Y0.77500
X0.90820 Y0.77600
X0.90920 Y0.77600
X0.90920 Y0.77700
X0.91020 Y0.77700
X0.91020 Y0.77800
X0.91120 Y0.77800
X0.91120 Y0.77900
X0.91220 Y0.77900
X0.91220 Y0.78000
X0.91320 Y0.78000
X0.91320 Y0.83700
X0.91220 Y0.83700
X0.91220 Y0.83800
X0.91120 Y0.83800
X0.91120 Y0.83900
X0.91020 Y0.83900
X0.91020 Y0.84000
X0.90920 Y0.84000
X0.90920 Y0.84100
X0.90820 Y0.84100
X0.90820 Y0.84200
X0.90720 Y0.84200
X0.90720 Y0.84300
X0.90620 Y0.84300
X0.90620 Y0.84400
X0.90520 Y0.84400
X0.90520 Y0.84500
X0.90420 Y0.84500
X0.90420 Y0.84600
X0.90320 Y0.84600
X0.90320 Y0.84700
X0.90220 Y0.84700
X0.90220 Y0.84800
X0.90120 Y0.84800
X0.90120 Y0.84900
X0.90020 Y0.84900
X0.90020 Y0.85000
X0.89920 Y0.85000
X0.89920 Y0.85100
X0.89820 Y0.85100
X0.89820 Y0.85200
X0.89720 Y0.85200
X0.89720 Y0.85300
X0.89620 Y0.85300
X0.89620 Y0.85400
X0.83920 Y0.85400
X0.83920 Y0.85300
X0.83820 Y0.85300
X0.83820 Y0.85200
X0.83720 Y0.85200
X0.83720 Y0.85100
X0.83620 Y0.85100
X0.83620 Y0.85000
X0.83520 Y0.85000
X0.83520 Y0.84900
X0.83420 Y0.84900
X0.83420 Y0.84800
X0.83320 Y0.84800
X0.83320 Y0.84700
X0.83220 Y0.84700
X0.83220 Y0.84600
X0.83120 Y0.84600
X0.83120 Y0.84500
X0.83020 Y0.84500
X0.83020 Y0.84400
X0.82920 Y0.84400
X0.82920 Y0.84300
X0.82820 Y0.84300
X0.82820 Y0.84200
X0.82720 Y0.84200
X0.82720 Y0.84100
X0.82620 Y0.84100
X0.82620 Y0.84000
X0.82520 Y0.84000
X0.82520 Y0.83900
X0.82420 Y0.83900
X0.82420 Y0.83800
G04 P0 ( dwell for no time -- G64 should not smooth over this point )
G00 Z0.11811 ( retract )

G00 X0.21920 Y0.66800 ( rapid move to begin. )
G01 Z0.00000 F7.87402 ( plunge. )
G04 P0 ( dwell for no time -- G64 should not smooth over this point )
X0.21920 Y0.66800
X0.21820 Y0.66800
X0.21820 Y0.66700
X0.21720 Y0.66700
X0.21720 Y0.66500
X0.21620 Y0.66500
X0.21620 Y0.66300
X0.21520 Y0.66300
X0.21520 Y0.66000
X0.21420 Y0.66000
X0.21420 Y0.65700
X0.21320 Y0.65700
X0.21320 Y0.65400
X0.21220 Y0.65400
X0.21220 Y0.60500
X0.21320 Y0.60500
X0.21320 Y0.60200
X0.21420 Y0.60200
X0.21420 Y0.59900
X0.21520 Y0.59900
X0.21520 Y0.59600
X0.21620 Y0.59600
X0.21620 Y0.59400
X0.21720 Y0.59400
X0.21720 Y0.59300
X0.21820 Y0.59300
X0.21820 Y0.59100
X0.21920 Y0.59100
X0.21920 Y0.58900
X0.22020 Y0.58900
X0.22020 Y0.58800
X0.22120 Y0.58800
X0.22120 Y0.58700
X0.22220 Y0.58700
X0.22220 Y0.58600
X0.22320 Y0.58600
X0.22320 Y0.58500
X0.22420 Y0.58500
X0.22420 Y0.58400
X0.22620 Y0.58400
X0.22620 Y0.58300
X0.22720 Y0.58300
X0.22720 Y0.58200
X0.22920 Y0.58200
X0.22920 Y0.58100
X0.23120 Y0.58100
X0.23120 Y0.58000
X0.23220 Y0.58000
X0.23220 Y0.57900
X0.23420 Y0.57900
X0.23420 Y0.57800
X0.23620 Y0.57800
X0.23620 Y0.57700
X0.24020 Y0.57700
X0.24020 Y0.57600
X0.24620 Y0.57600
X0.24620 Y0.57500
X0.28720 Y0.57500
X0.28720 Y0.57600
X0.29320 Y0.57600
X0.29320 Y0.57700
X0.29720 Y0.57700
X0.29720 Y0.57800
X0.29920 Y0.57800
X0.29920 Y0.57900
X0.30120 Y0.57900
X0.30120 Y0.58000
X0.30220 Y0.58000
X0.30220 Y0.58100
X0.30420 Y0.58100
X0.30420 Y0.58200
X0.30620 Y0.58200
X0.30620 Y0.58300
X0.30720 Y0.58300
X0.30720 Y0.58400
X0.30920 Y0.58400
X0.30920 Y0.58500
X0.31020 Y0.58500
X0.31020 Y0.58600
X0.31120 Y0.58600
X0.31120 Y0.58700
X0.31220 Y0.58700
X0.31220 Y0.58800
X0.31320 Y0.58800
X0.31320 Y0.58900
X0.31420 Y0.58900
X0.31420 Y0.59100
X0.31520 Y0.59100
X0.31520 Y0.59200
X0.31620 Y0.59200
X0.31620 Y0.59400
X0.31720 Y0.59400
X0.31720 Y0.59600
X0.31820 Y0.59600
X0.31820 Y0.59800
X0.31920 Y0.59800
X0.31920 Y0.60200
X0.32020 Y0.60200
X0.32020 Y0.60500
X0.32120 Y0.60500
X0.32120 Y0.65400
X0.32020 Y0.65400
X0.32020 Y0.65700
X0.31920 Y0.65700
X0.31920 Y0.66100
X0.31820 Y0.66100
X0.31820 Y0.66300
X0.31720 Y0.66300
X0.31720 Y0.66500
X0.31620 Y0.66500
X0.31620 Y0.66700
X0.31520 Y0.66700
X0.31520 Y0.66800
X0.31420 Y0.66800
X0.31420 Y0.67000
X0.31320 Y0.67000
X0.31320 Y0.67100
X0.31220 Y0.67100
X0.31220 Y0.67200
X0.31120 Y0.67200
X0.31120 Y0.67300
X0.31020 Y0.67300
X0.31020 Y0.67400
X0.30920 Y0.67400
X0.30920 Y0.67500
X0.30720 Y0.67500
X0.30720 Y0.67600
X0.30620 Y0.67600
X0.30620 Y0.67700
X0.30420 Y0.67700
X0.30420 Y0.67800
X0.30220 Y0.67800
X0.30220 Y0.67900
X0.30120 Y0.67900
X0.30120 Y0.68000
X0.29920 Y0.68000
X0.29920 Y0.68100
X0.29720 Y0.68100
X0.29720 Y0.68200
X0.29320 Y0.68200
X0.29320 Y0.68300
X0.28720 Y0.68300
X0.28720 Y0.68400
X0.24620 Y0.68400
X0.24620 Y0.68300
X0.24020 Y0.68300
X0.24020 Y0.68200
X0.23620 Y0.68200
X0.23620 Y0.68100
X0.23420 Y0.68100
X0.23420 Y0.68000
X0.23220 Y0.68000
X0.23220 Y0.67900
X0.23120 Y0.67900
X0.23120 Y0.67800
X0.22920 Y0.67800
X0.22920 Y0.67700
X0.22720 Y0.67700
X0.22720 Y0.67600
X0.22620 Y0.67600
X0.22620 Y0.67500
X0.22420 Y0.67500
X0.22420 Y0.67400
X0.22320 Y0.67400
X0.22320 Y0.67300
X0.22220 Y0.67300
X0.22220 Y0.67200
X0.22120 Y0.67200
X0.22120 Y0.67100
X0.22020 Y0.67100
X0.22020 Y0.67000
X0.21920 Y0.67000
X0.21920 Y0.66800
G04 P0 ( dwell for no time -- G64 should not smooth over this point )
G00 Z0.11811 ( retract )

G00 X1.77120 Y0.66600 ( rapid move to begin. )
G01 Z0.00000 F7.87402 ( plunge. )
G04 P0 ( dwell for no time -- G64 should not smooth over this point )
X1.77120 Y0.66600
X1.77020 Y0.66600
X1.77020 Y0.66500
X1.76920 Y0.66500
X1.76920 Y0.66300
X1.76820 Y0.66300
X1.76820 Y0.66100
X1.76720 Y0.66100
X1.76720 Y0.65800
X1.76620 Y0.65800
X1.76620 Y0.65500
X1.76520 Y0.65500
X1.76520 Y0.65200
X1.76420 Y0.65200
X1.76420 Y0.60300
X1.76520 Y0.60300
X1.76520 Y0.60000
X1.76620 Y0.60000
X1.76620 Y0.59700
X1.76720 Y0.59700
X1.76720 Y0.59400
X1.76820 Y0.59400
X1.76820 Y0.59200
X1.76920 Y0.59200
X1.76920 Y0.59100
X1.77020 Y0.59100
X1.77020 Y0.58900
X1.77120 Y0.58900
X1.77120 Y0.58700
X1.77220 Y0.58700
X1.77220 Y0.58600
X1.77320 Y0.58600
X1.77320 Y0.58500
X1.77420 Y0.58500
X1.77420 Y0.58400
X1.77520 Y0.58400
X1.77520 Y0.58300
X1.77620 Y0.58300
X1.77620 Y0.58200
X1.77820 Y0.58200
X1.77820 Y0.58100
X1.77920 Y0.58100
X1.77920 Y0.58000
X1.78120 Y0.58000
X1.78120 Y0.57900
X1.78320 Y0.57900
X1.78320 Y0.57800
X1.78420 Y0.57800
X1.78420 Y0.57700
X1.78620 Y0.57700
X1.78620 Y0.57600
X1.78820 Y0.57600
X1.78820 Y0.57500
X1.79220 Y0.57500
X1.79220 Y0.57400
X1.79820 Y0.57400
X1.79820 Y0.57300
X1.83920 Y0.57300
X1.83920 Y0.57400
X1.84520 Y0.57400
X1.84520 Y0.57500
X1.84920 Y0.57500
X1.84920 Y0.57600
X1.85120 Y0.57600
X1.85120 Y0.57700
X1.85320 Y0.57700
X1.85320 Y0.57800
X1.85420 Y0.57800
X1.85420 Y0.57900
X1.85620 Y0.57900
X1.85620 Y0.58000
X1.85820 Y0.58000
X1.85820 Y0.58100
X1.85920 Y0.58100
X1.85920 Y0.58200
X1.86120 Y0.58200
X1.86120 Y0.58300
X1.86220 Y0.58300
X1.86220 Y0.58400
X1.86320 Y0.58400
X1.86320 Y0.58500
X1.86420 Y0.58500
X1.86420 Y0.58600
X1.86520 Y0.58600
X1.86520 Y0.58700
X1.86620 Y0.58700
X1.86620 Y0.58900
X1.86720 Y0.58900
X1.86720 Y0.59000
X1.86820 Y0.59000
X1.86820 Y0.59200
X1.86920 Y0.59200
X1.86920 Y0.59400
X1.87020 Y0.59400
X1.87020 Y0.59600
X1.87120 Y0.59600
X1.87120 Y0.60000
X1.87220 Y0.60000
X1.87220 Y0.60300
X1.87320 Y0.60300
X1.87320 Y0.65200
X1.87220 Y0.65200
X1.87220 Y0.65500
X1.87120 Y0.65500
X1.87120 Y0.65900
X1.87020 Y0.65900
X1.87020 Y0.66100
X1.86920 Y0.66100
X1.86920 Y0.66300
X1.86820 Y0.66300
X1.86820 Y0.66500
X1.86720 Y0.66500
X1.86720 Y0.66600
X1.86620 Y0.66600
X1.86620 Y0.66800
X1.86520 Y0.66800
X1.86520 Y0.66900
X1.86420 Y0.66900
X1.86420 Y0.67000
X1.86320 Y0.67000
X1.86320 Y0.67100
X1.86220 Y0.67100
X1.86220 Y0.67200
X1.86120 Y0.67200
X1.86120 Y0.67300
X1.85920 Y0.67300
X1.85920 Y0.67400
X1.85820 Y0.67400
X1.85820 Y0.67500
X1.85620 Y0.67500
X1.85620 Y0.67600
X1.85420 Y0.67600
X1.85420 Y0.67700
X1.85320 Y0.67700
X1.85320 Y0.67800
X1.85120 Y0.67800
X1.85120 Y0.67900
X1.84920 Y0.67900
X1.84920 Y0.68000
X1.84520 Y0.68000
X1.84520 Y0.68100
X1.83920 Y0.68100
X1.83920 Y0.68200
X1.79820 Y0.68200
X1.79820 Y0.68100
X1.79220 Y0.68100
X1.79220 Y0.68000
X1.78820 Y0.68000
X1.78820 Y0.67900
X1.78620 Y0.67900
X1.78620 Y0.67800
X1.78420 Y0.67800
X1.78420 Y0.67700
X1.78320 Y0.67700
X1.78320 Y0.67600
X1.78120 Y0.67600
X1.78120 Y0.67500
X1.77920 Y0.67500
X1.77920 Y0.67400
X1.77820 Y0.67400
X1.77820 Y0.67300
X1.77620 Y0.67300
X1.77620 Y0.67200
X1.77520 Y0.67200
X1.77520 Y0.67100
X1.77420 Y0.67100
X1.77420 Y0.67000
X1.77320 Y0.67000
X1.77320 Y0.66900
X1.77220 Y0.66900
X1.77220 Y0.66800
X1.77120 Y0.66800
X1.77120 Y0.66600
G04 P0 ( dwell for no time -- G64 should not smooth over this point )
G00 Z0.11811 ( retract )

G00 X0.21920 Y0.46800 ( rapid move to begin. )
G01 Z0.00000 F7.87402 ( plunge. )
G04 P0 ( dwell for no time -- G64 should not smooth over this point )
X0.21920 Y0.46800
X0.21820 Y0.46800
X0.21820 Y0.46700
X0.21720 Y0.46700
X0.21720 Y0.46500
X0.21620 Y0.46500
X0.21620 Y0.46300
X0.21520 Y0.46300
X0.21520 Y0.46000
X0.21420 Y0.46000
X0.21420 Y0.45700
X0.21320 Y0.45700
X0.21320 Y0.45400
X0.21220 Y0.45400
X0.21220 Y0.40500
X0.21320 Y0.40500
X0.21320 Y0.40200
X0.21420 Y0.40200
X0.21420 Y0.39900
X0.21520 Y0.39900
X0.21520 Y0.39600
X0.21620 Y0.39600
X0.21620 Y0.39400
X0.21720 Y0.39400
X0.21720 Y0.39300
X0.21820 Y0.39300
X0.21820 Y0.39100
X0.21920 Y0.39100
X0.21920 Y0.38900
X0.22020 Y0.38900
X0.22020 Y0.38800
X0.22120 Y0.38800
X0.22120 Y0.38700
X0.22220 Y0.38700
X0.22220 Y0.38600
X0.22320 Y0.38600
X0.22320 Y0.38500
X0.22420 Y0.38500
X0.22420 Y0.38400
X0.22620 Y0.38400
X0.22620 Y0.38300
X0.22720 Y0.38300
X0.22720 Y0.38200
X0.22920 Y0.38200
X0.22920 Y0.38100
X0.23120 Y0.38100
X0.23120 Y0.38000
X0.23220 Y0.38000
X0.23220 Y0.37900
X0.23420 Y0.37900
X0.23420 Y0.37800
X0.23620 Y0.37800
X0.23620 Y0.37700
X0.24020 Y0.37700
X0.24020 Y0.37600
X0.24620 Y0.37600
X0.24620 Y0.37500
X0.28720 Y0.37500
X0.28720 Y0.37600
X0.29320 Y0.37600
X0.29320 Y0.37700
X0.29720 Y0.37700
X0.29720 Y0.37800
X0.29920 Y0.37800
X0.29920 Y0.37900
X0.30120 Y0.37900
X0.30120 Y0.38000
X0.30220 Y0.38000
X0.30220 Y0.38100
X0.30420 Y0.38100
X0.30420 Y0.38200
X0.30620 Y0.38200
X0.30620 Y0.38300
X0.30720 Y0.38300
X0.30720 Y0.38400
X0.30920 Y0.38400
X0.30920 Y0.38500
X0.31020 Y0.38500
X0.31020 Y0.38600
X0.31120 Y0.38600
X0.31120 Y0.38700
X0.31220 Y0.38700
X0.31220 Y0.38800
X0.31320 Y0.38800
X0.31320 Y0.38900
X0.31420 Y0.38900
X0.31420 Y0.39100
X0.31520 Y0.39100
X0.31520 Y0.39200
X0.31620 Y0.39200
X0.31620 Y0.39400
X0.31720 Y0.39400
X0.31720 Y0.39600
X0.31820 Y0.39600
X0.31820 Y0.39800
X0.31920 Y0.39800
X0.31920 Y0.40200
X0.32020 Y0.40200
X0.32020 Y0.40500
X0.32120 Y0.40500
X0.32120 Y0.45400
X0.32020 Y0.45400
X0.32020 Y0.45700
X0.31920 Y0.45700
X0.31920 Y0.46100
X0.31820 Y0.46100
X0.31820 Y0.46300
X0.31720 Y0.46300
X0.31720 Y0.46500
X0.31620 Y0.46500
X0.31620 Y0.46700
X0.31520 Y0.46700
X0.31520 Y0.46800
X0.31420 Y0.46800
X0.31420 Y0.47000
X0.31320 Y0.47000
X0.31320 Y0.47100
X0.31220 Y0.47100
X0.31220 Y0.47200
X0.31120 Y0.47200
X0.31120 Y0.47300
X0.31020 Y0.47300
X0.31020 Y0.47400
X0.30920 Y0.47400
X0.30920 Y0.47500
X0.30720 Y0.47500
X0.30720 Y0.47600
X0.30620 Y0.47600
X0.30620 Y0.47700
X0.30420 Y0.47700
X0.30420 Y0.47800
X0.30220 Y0.47800
X0.30220 Y0.47900
X0.30120 Y0.47900
X0.30120 Y0.48000
X0.29920 Y0.48000
X0.29920 Y0.48100
X0.29720 Y0.48100
X0.29720 Y0.48200
X0.29320 Y0.48200
X0.29320 Y0.48300
X0.28720 Y0.48300
X0.28720 Y0.48400
X0.24620 Y0.48400
X0.24620 Y0.48300
X0.24020 Y0.48300
X0.24020 Y0.48200
X0.23620 Y0.48200
X0.23620 Y0.48100
X0.23420 Y0.48100
X0.23420 Y0.48000
X0.23220 Y0.48000
X0.23220 Y0.47900
X0.23120 Y0.47900
X0.23120 Y0.47800
X0.22920 Y0.47800
X0.22920 Y0.47700
X0.22720 Y0.47700
X0.22720 Y0.47600
X0.22620 Y0.47600
X0.22620 Y0.47500
X0.22420 Y0.47500
X0.22420 Y0.47400
X0.22320 Y0.47400
X0.22320 Y0.47300
X0.22220 Y0.47300
X0.22220 Y0.47200
X0.22120 Y0.47200
X0.22120 Y0.47100
